**kern	**dynam	**kern	**dynam	**kern	**dynam	**kern	**dynam	**mxhm
*part4	*part4	*part3	*part3	*part2	*part2	*part1	*part1	*part1
*staff4	*	*staff3	*	*staff2	*	*staff1	*	*
*I"Cello	*	*I"Viola	*	*I"2nd Violin	*	*I"1st Violin	*	*
*clefF4	*	*clefC3	*	*clefG2	*	*clefG2	*	*
*k[]	*	*k[]	*	*k[]	*	*k[]	*	*
*C:	*	*C:	*	*C:	*	*C:	*	*
*M4/4	*	*M4/4	*	*M4/4	*	*M4/4	*	*
*met(c)	*	*met(c)	*	*met(c)	*	*met(c)	*	*
=1	=1	=1	=1	=1	=1	=1	=1	=1
!	!	!	!	!	!	!LO:TX:a:i:t=Poco scherzoso.	!	!
!	!	!	!	!	!	!LO:TX:a:B:t=Andante con moto ma non troppo.	!	!
1r	.	4r	.	4r	.	(2a	p >	viio6(2)
.	.	[4B	p >	[4d	p >	.	.	.
.	.	(4B]	]	(4d]	]	8a-)	.	viio6
.	.	.	.	.	.	8r	]	.
.	.	8.dL	.	8.fL	.	4r	.	.
.	.	32cLL	.	32eLL	.	.	.	.
.	.	32BJJJ)	.	32dJJJ)	.	.	.	.
=2	=2	=2	=2	=2	=2	=2	=2	=2
4r	.	8c	p	4e	p	(4aX	p	vi6
.	.	8r	.	.	.	.	.	.
[4BBB	p >	[4D	>	(4a	>	4aa	>	viio6(2)
(4BBB]	]	(4D]	]	8g#)	]	8gg#)	]	viio6
.	.	.	.	8r	.	8r	.	.
8.DDL	.	8.FL	.	8r	.	8r	.	.
!	!	!	!	!	!	!LO:TX:b:i:t=dolce	!	!
.	.	.	.	[8gX	.	[8ggX	.	V6
32CCLL	.	32ELL	.	.	.	.	.	.
32BBBJJJ)	.	32DJJJ)	.	.	.	.	.	.
=3	=3	=3	=3	=3	=3	=3	=3	=3
16CC'LL	.	(4C	.	2g_	.	2gg_	.	I
16AA'	.	.	.	.	.	.	.	.
16GG'	.	.	.	.	.	.	.	.
16EE'JJ	.	.	.	.	.	.	.	.
16CCLL	.	8.EL	.	.	.	.	.	.
16AA	.	.	.	.	.	.	.	.
16GG	.	.	.	.	.	.	.	.
16EEJJ	.	32DLL	.	.	.	.	.	.
.	.	32CJJJ)	.	.	.	.	.	.
16BBBLL	.	8D'L	.	2g_	.	8ggL]	.	V6
16AA	.	.	.	.	.	.	.	.
16GG	.	8E'	.	.	.	[8ggJ	.	.
16CCJJ	.	.	.	.	.	.	.	.
16DDLL	.	8F'J	.	.	.	16ggKL]	.	V43
16AA	.	.	.	.	.	8ff	.	.
16GG	.	8r	.	.	.	.	.	.
16DDJJ	.	.	.	.	.	16b'Jk	.	.
=4	=4	=4	=4	=4	=4	=4	=4	=4
16CC'LL	.	(4E	.	2g]	.	2cc	.	I6
16AA'	.	.	.	.	.	.	.	.
16GG'	.	.	.	.	.	.	.	.
16EE'JJ	.	.	.	.	.	.	.	.
16EE'LL	.	8.GL	.	.	.	.	.	.
16D'	.	.	.	.	.	.	.	.
16C'	.	.	.	.	.	.	.	.
16GG'JJ	.	32FLL	.	.	.	.	.	.
.	.	32EJJJ)	.	.	.	.	.	.
16FF'LL	.	8A'L	.	16g'LL	.	16b'LL	.	IV
16F'	.	.	.	16f'JJ	.	16a'	.	.
16D'	.	8B'	.	16r	.	16g'	.	V43
16GG'JJ	.	.	.	16d'	.	16f'JJ	.	V7
16GG'LL	.	8c'	.	16r	.	8e'L	.	V(64)
16G'	.	.	.	16c'LL	.	.	.	.
16G'	.	8d'J	.	16B'	.	8b'J	.	V7
16GG'JJ	.	.	.	16f'JJ	.	.	.	.
=5	=5	=5	=5	=5	=5	=5	=5	=5
8CC'	.	16c'LL	.	(8e (2G	.	(4cc	.	I\\
.	.	16A'	.	.	.	.	.	.
8r	.	16G'	.	[4.g)	.	.	.	.
.	.	16E'JJ	.	.	.	.	.	.
16r	.	8C'	.	.	.	8.eeL	.	I
16AA'LL	.	.	.	.	.	.	.	.
16GG'	.	8r	.	.	.	.	.	.
16CC'JJ	.	.	.	.	.	32ddLL	.	.
.	.	.	.	.	.	32ccJJJ)	.	.
8BBB'	.	16r	.	8GL) 8g]	.	8dd'L	.	V6
.	.	16A'LL	.	.	.	.	.	.
8r	.	16G'	.	[8GJ [8g	.	8ee'	.	.
.	.	16BB'JJ	.	.	.	.	.	.
16r	.	8C'	.	16GKL] 16g]	.	8ff'J	.	V65
16AA'LL	.	.	.	8f	.	.	.	.
16GG'	.	8r	.	.	.	8r	.	V7
16DD'JJ	.	.	.	16BJk	.	.	.	.
=6	=6	=6	=6	=6	=6	=6	=6	=6
8CC'	.	16r	.	(8g 2G	.	(4ee	.	I
.	.	16A'LL	.	.	.	.	.	.
8r	.	16G'	.	4e)	.	.	.	.
.	.	16E'JJ	.	.	.	.	.	.
16r	.	8C'	.	.	.	8.ggL	.	.
16D'LL	.	.	.	.	.	.	.	.
16C'	.	8r	.	8e	.	.	.	.
16GG'JJ	.	.	.	.	.	32ffLL	.	.
.	.	.	.	.	.	32eeJJJ)	.	.
!LO:TX:b:i:t=cresc.	!	!LO:TX:b:i:t=cresc.	!	!LO:TX:b:i:t=cresc.	!	!LO:TX:b:i:t=cresc.	!	!
8FF'	.	16r	.	8A'L	.	8aa'L	.	IVM7
.	.	16e'LL	.	.	.	.	.	.
8r	.	16d'	.	8f'J	.	8bb'	.	V7
.	.	16G'JJ	.	.	.	.	.	.
16r	.	8A'L	.	8e'L	.	8ccc'	.	vi
16A'LL	.	.	.	.	.	.	.	.
16G'	.	8BB'J	.	16B'L	.	8ddd'J	.	V6
16BB'JJ	.	.	.	16d'JJ	.	.	.	.
=7	=7	=7	=7	=7	=7	=7	=7	=7
!	!LO:DY:a	!	!	!	!	!	!	!
16AA'LL	p p <	(8CL	<	(8eL	p <	(8.eeeL	p <	vii%7
16G'	.	.	.	.	.	.	.	.
16F#'	[ >	[8A	.	[8f#	.	.	.	.
16AA'JJ	.	.	.	.	.	32dddLL	.	V6
.	.	.	.	.	.	32cccJJJ)	.	.
16BB'LL	]	8A]	[ >	8f#]	[ >	8ddd'L	[ >	iii7
16E'	.	.	.	.	.	.	.	.
16D'	.	8BJ)	.	8gJ)	.	8gg'J	.	I6
16BB'JJ	.	.	.	.	.	.	.	.
16AALL	<	(8CL	] <	(8.eeL	] <	(8eL	] <	ii7
16G	.	.	.	.	.	.	.	.
16F#	[ >	[8A	.	.	.	[8f#	.	V64
16AAJJ	.	.	.	32ddLL	.	.	.	.
.	.	.	.	32ccJJJ)	.	.	.	.
16BBLL	]	8A]	[ >	8dd'L	[ >	8f#]	[ >	iii7
16E	.	.	.	.	.	.	.	.
16D	.	8BJ)	]]	[8gJ	]]	8gJ)	]]	I6
16BBJJ	.	.	.	.	.	.	.	.
=8	=8	=8	=8	=8	=8	=8	=8	=8
!LO:TX:a:i:t=cresc.	!	!LO:TX:a:i:t=cresc.	!	!LO:TX:a:i:t=cresc.	!	!	!	!
16AALL	p	(8EL	p	(8gL]	p	(8.eeeL	p <	ii7
16G	.	.	.	.	.	.	.	.
16F#	.	[8F#	.	8a	.	.	.	.
16AAJJ	.	.	.	.	.	32dddLL	.	V64
.	.	.	.	.	.	32cccJJJ)	.	.
16BBLL	.	8F#'])	.	8d')	.	8ddd'L	.	iii
16E	.	.	.	.	.	.	.	.
16D	.	8G'J	.	8B'J	.	8ggg'J	[	I6
16BBJJ	.	.	.	.	.	.	.	.
16CLL	.	8G'L	.	8A'L	.	8aa'L	.	ii65
16E	.	.	.	.	.	.	.	.
16D	.	8F#'	.	8A'	.	8ddd'J	.	V
16DDJJ	.	.	.	.	.	.	.	.
16GGLL	.	8D'	.	8B-X'	.	8gg'L	.	i
16G	.	.	.	.	.	.	.	.
!LO:TX:b:i:t=cresc.	!	!LO:TX:b:i:t=cresc.	!	!LO:TX:b:i:t=cresc.	!	!LO:TX:b:i:t=cresc.	!	!
16C#	.	8E'J	.	8A'J	.	8aa'J	.	V6/V
16CC#JJ	.	.	.	.	.	.	.	.
=9	=9	=9	=9	=9	=9	=9	=9	=9
!	!	!	!LO:DY:a	!	!	!	!	!
16DDLL	p	8FX'L	p p	8A'L	.	8ff'L	p	I.ii
16FX	.	.	.	.	.	.	.	.
16BB	.	8D'	.	8G'	.	8gg'	.	V6
16BBBJJ	.	.	.	.	.	.	.	.
16CCXLL	.	8E'	.	8G'	.	8ee'	.	I
16G	.	.	.	.	.	.	.	.
16E	.	8E'J 8G	.	8g'J	.	8ccc'J	.	I6
16EEJJ	.	.	.	.	.	.	.	.
16FFXLL	.	8A'L	.	8fX'L	.	8dd'L	.	ii6
16A	.	.	.	.	.	.	.	.
16AA	.	8B'	.	8d'	.	8gg'	.	V
16GGJJ	.	.	.	.	.	.	.	.
8CX	.	8G'J	.	8e'J	.	8cc'J	.	I\\
8r	.	8r	.	8r	.	8r	.	.
=10	=10	=10	=10	=10	=10	=10	=10	=10
!LO:TX:a:B:t=pizz.	!	!LO:TX:a:B:t=pizz.	!	!LO:TX:a:B:t=pizz.	!	!	!	!
8DDL	.	4r	.	2r	.	8r	.	ii
8GGJ	.	.	.	.	.	8r	.	V
8CC	.	8EL	.	.	.	4r	.	I
8r	.	8cJ	.	.	.	.	.	.
8DD	.	8F#L	.	8aL	.	4r	.	V/V
8r	.	8f#J	.	8ddJ	.	.	.	.
!	!	!	!	!	!	!LO:TX:b:i:t=cresc.	!	!
8GG	.	8G 8g	.	8b	.	8dd'L	.	V
8r	.	8r	.	8r	.	8bb'J	.	.
=11||	=11||	=11||	=11||	=11||	=11||	=11||	=11||	=11||
*k[f#]	*	*k[f#]	*	*k[f#]	*	*k[f#]	*	*
*G:	*	*G:	*	*G:	*	*G:	*	*
!	!	!	!	!LO:TX:a:B:t=arco	!	!	!	!
.	.	.	.	16qqe/	.	.	.	.
!	!	!	!LO:DY:a	!	!	!	!	!
2r	.	4r	fp	16d'LL	.	4bb	fp	I
.	.	.	.	16c#'	.	.	.	.
.	.	.	.	16d'	.	.	.	.
.	.	.	.	16g'JJ	.	.	.	.
.	.	.	.	.	.	16qqcc/	.	.
.	.	16D'LL	p	16g'LL	.	16b'LL	.	.
.	.	16c'	.	16f#'	.	16a'	.	.
.	.	16B'	.	16g'	.	16b'	.	.
.	.	16G'JJ	.	16b'JJ	.	16dd'JJ	.	.
16qqEE/	p	.	.	.	.	.	.	.
16DD'LL	.	8A'L	.	8f#'L	.	8cc'L	.	V7
16CC#'	.	.	.	.	.	.	.	.
16DD'	.	8A'J	.	8d'J	.	8cc'J	.	.
16FF#'JJ	.	.	.	.	.	.	.	.
.	.	16qqA/	.	.	.	.	.	.
8GG'	.	16G'LL	.	8d'	.	8b'	.	I
.	.	16F#'	.	.	.	.	.	.
8r	.	16G'	.	8r	.	8r	.	.
.	.	16B'JJ	.	.	.	.	.	.
=12	=12	=12	=12	=12	=12	=12	=12	=12
.	.	.	.	16qqcc/	.	.	.	.
2r	.	4r	.	16b'LL	.	4gg	.	I6
.	.	.	.	16a'	.	.	.	.
.	.	.	.	16b'	.	.	.	.
.	.	.	.	16dd'JJ	.	.	.	.
.	.	16qqF#/	.	16qqc/	.	16qqaa/	.	I
.	.	16G'LL	.	16B'LL	.	16gg'LL	.	.
.	.	16A'	.	16c'	.	16ff#'	.	.
.	.	16G'	.	16B'	.	16gg'	.	.
.	.	16BB'JJ	.	16g'JJ	.	16bb'JJ	.	.
*clefC4	*	*	*	*	*	*	*	*
16qqe/	.	.	.	.	.	.	.	.
16d'LL	.	8C'L	.	8f#'L	.	8aa'L	.	V2
16c#'	.	.	.	.	.	.	.	.
16d'	.	8C'J	.	8f#'J	.	8aa'J	.	.
16f#'JJ	.	.	.	.	.	.	.	.
8g'	.	16BB'LL	.	16d'LL	.	8gg'	.	I6
.	.	16A'	.	16f#'	.	.	.	.
8r	.	16B'	.	16g'	.	8r	.	.
.	.	16d'JJ	.	16b'JJ	.	.	.	.
=13	=13	=13	=13	=13	=13	=13	=13	=13
16qqFFX/	pp	.	.	.	.	.	.	.
16EE'LL	.	8d'L	pp	8b'L	pp	8bb'L	pp	V7/vi
16DD#'	.	.	.	.	.	.	.	.
16EE'	.	8d'J	.	8e'J	.	8bb'J	.	.
16GG#'JJ	.	.	.	.	.	.	.	.
.	.	32qqd/	.	32qqfX/	.	.	.	.
8AA'	.	16c'LL	.	16e'LL	.	8aa'	.	vi
.	.	16c'	.	16d#'	.	.	.	.
8r	.	16c'	.	16e'	.	8r	.	.
.	.	16c'JJ	.	16a'JJ	.	.	.	.
!	!LO:DY:a	!	!LO:DY:a	!	!	!	!	!
8GGX'L	fp fp	8BB'L	fp	8ddX'L	.	8ddd'L	fp	V7/IV
8G'J	.	8B'J	.	8dX'J	.	8ffX'J	.	.
16r	.	4r	.	4r	.	4r	.	.
(32BBBLLL	.	.	.	.	.	.	.	.
32CCJ)	.	.	.	.	.	.	.	.
16DDX'	.	.	.	.	.	.	.	.
16BBB'JJ	pp	.	.	.	.	.	.	.
=14	=14	=14	=14	=14	=14	=14	=14	=14
(8.EEL	<	2r	pp	1r	.	2r	pp	@none
16AAJk)	.	.	.	.	.	.	.	.
(8.DDL	[ >	.	.	.	.	.	.	.
16GGJk)	.	.	.	.	.	.	.	.
8r	]	8C'L	.	.	.	8r	.	IV
8FF#'L	.	8D'	.	.	.	8r	.	V6
8GG'	.	8BB'J	.	.	.	16r	.	I
.	.	.	.	.	.	(32bLLL	.	.
.	.	.	.	.	.	32ccJJJ)	.	.
8BBB'J	.	8r	.	.	.	16dd'LL	.	I6
.	.	.	.	.	.	16b'JJ	.	.
=15	=15	=15	=15	=15	=15	=15	=15	=15
8.r	pp	8r	pp	8r	pp	(8.eeL	<	ii6
.	.	(32dLLL	<	(4a	.	.	.	.
.	.	32cJJJ)	.	.	.	.	.	.
(32CLLL	<	16r	[	.	.	16aaJk)	.	.
32EJJJ)	.	.	.	.	.	.	.	.
8BB	[	8r	.	.	.	(8.ddL	[ >	I6
16r	.	(32cLLL	<	8g)	.	.	.	.
.	.	32BJJJ)	.	.	.	.	.	.
(32BBLLL	<	16r	[	.	.	16ggJk)	.	.
32DJJJ)	.	.	.	.	.	.	.	.
8CC'L	[	(48ELLL	.	4r	.	8r	]	IV
.	.	48D	.	.	.	.	.	.
.	.	48E	.	.	.	.	.	.
.	.	48D	.	.	.	.	.	.
.	.	48E	.	.	.	.	.	.
.	.	48DJJJ)	.	.	.	.	.	.
8DD'	.	(48ELLL	.	.	.	8r	.	V
.	.	48D	.	.	.	.	.	.
.	.	48E	.	.	.	.	.	.
.	.	48D	.	.	.	.	.	.
.	.	48C#	.	.	.	.	.	.
.	.	48DJJJ)	.	.	.	.	.	.
8BBB'	.	(48ALLL	.	16r	.	4r	.	I6
.	.	48G	.	.	.	.	.	.
.	.	48A	.	.	.	.	.	.
.	.	48G	.	(32gLLL	.	.	.	.
.	.	48A	.	.	.	.	.	.
.	.	.	.	32aJJJ)	.	.	.	.
.	.	48GJJJ)	.	.	.	.	.	.
8DD'J	.	(48ALLL	.	16b'LL	.	.	.	.
.	.	48G	.	.	.	.	.	.
.	.	48A	.	.	.	.	.	.
.	.	48G	.	16g'JJ	.	.	.	.
.	.	48F#	.	.	.	.	.	.
.	.	48GJJJ)	.	.	.	.	.	.
=16	=16	=16	=16	=16	=16	=16	=16	=16
8CC'L	.	16F#'LL	.	8a'L	pp	4r	pp	V65
.	.	(32AL	.	.	.	.	.	.
.	.	32BJ)	.	.	.	.	.	.
8FF#'	.	16c'	.	8d'	.	.	.	.
.	.	16A'JJ	.	.	.	.	.	.
8GG'	.	8B'L	.	8d'	.	8r	.	I
8BB'J	.	8G'J	.	8d'J	.	8dd'	.	I6
16AA'LL	.	(48ELLL	.	4r	.	8cc'L	.	V43
.	.	48D	.	.	.	.	.	.
.	.	48E	.	.	.	.	.	.
32FF#L	.	48D	.	.	.	.	.	.
.	.	48E	.	.	.	.	.	.
32GGJJJ	.	.	.	.	.	.	.	.
.	.	48DJJJ)	.	.	.	.	.	.
16AA'LL	.	(48ELLL	.	.	.	8dd'	.	V65
.	.	48D	.	.	.	.	.	.
.	.	48E	.	.	.	.	.	.
16FF#'JJ	.	48D	.	.	.	.	.	.
.	.	48C#	.	.	.	.	.	.
.	.	48DJJJ)	.	.	.	.	.	.
!	!	!	!	!LO:TX:b:i:t=sempre	!	!	!	!
8GG'L	.	8D'L	.	(48eLLL	.	8b'	.	I
.	.	.	.	48d	.	.	.	.
.	.	.	.	48e	.	.	.	.
.	.	.	.	48d	.	.	.	.
.	.	.	.	48e	.	.	.	.
.	.	.	.	48dJJJ)	.	.	.	.
8DD'J	.	8B'J	.	(48eLLL	.	8dd'J	.	I64
.	.	.	.	48d	.	.	.	.
.	.	.	.	48e	.	.	.	.
.	.	.	.	48d	.	.	.	.
.	.	.	.	48c#	.	.	.	.
.	.	.	.	48dJJJ)	.	.	.	.
=17	=17	=17	=17	=17	=17	=17	=17	=17
.	.	16qqD/	.	.	.	.	.	.
16AA'LL	.	8d'	.	8cX'L	.	8cc'L	.	V43
32AL	.	.	.	.	.	.	.	.
32BJ	.	.	.	.	.	.	.	.
.	.	16qqd/	.	.	.	.	.	.
16c'	.	8dd	.	16A'L	.	8ff#'J	.	.
16A'JJ	.	.	.	16c'JJ	.	.	.	.
.	.	16qqB/	.	.	.	.	.	.
8G'L	.	8b'L	.	8B'	.	8gg'L	.	I
!	!LO:DY:a	!	!	!	!	!	!	!
[8DD#J	fp fp	[8BBJ [8F#	.	[8f# [8b	fp	[8bbJ	fp	V6/vi
4DD#_	.	4BB_ 4F#_	.	8.f#L] 8.b]	.	16bbLL]	.	.
.	.	.	.	.	.	16bb	.	.
.	.	.	.	.	.	16ff#'JJ	.	.
.	.	.	.	16b'Jk	.	16r	.	.
8.DD#L]	.	16BBLL] 16F#]	.	8f#'	.	16r	.	.
.	.	16B'	.	.	.	16ff#'	.	.
.	.	16F#'	.	16r	.	16r	.	.
16BB'Jk	.	16D#'JJ 16F#	.	16f#'	.	(32gg#LLL	.	V7/vi
.	.	.	.	.	.	32aaJJJ)	.	.
=18	=18	=18	=18	=18	=18	=18	=18	=18
!LO:TX:b:i:t=dim.	!LO:DY:a	!LO:TX:b:i:t=dim.	!LO:DY:a	!LO:TX:b:i:t=dim.	!LO:DY:a	!LO:TX:b:i:t=dim.	!	!
16BBB'LL	pp pp	16D# 16F#	pp	16d#'LL	pp	16aa'LL	.	III.V7
16C#'	.	16r	.	16e'	.	16a'	.	.
16BB'	.	8r	.	16f#'	.	16a'	.	.
16D#'JJ	.	.	.	16B'JJ	.	(32aL	.	V65
.	.	.	.	.	.	32bJJJ)	.	.
16E'LL	.	16r	.	16B'LL	.	8g#	.	I
16C#'	.	16A'LL	.	16b'	.	.	.	.
16BB'	.	16G#'	.	16b'	.	8r	.	.
16E'JJ	.	16g#'JJ	.	(32bL	.	.	.	.
.	.	.	.	32cc#JJJ)	.	.	.	.
16F#'LL	.	16d#'LL	.	16a'LL	.	16r	.	V43
16C#'	.	16f#'	.	16F#'	.	16aa'LL	.	.
16BB'	.	16f#'	.	16F#'	.	16aa'	.	V7
16D#'JJ	.	(32f#L	.	16B'JJ	.	(32aaL	.	.
.	.	32g#JJJ)	.	.	.	32bbJJJ)	.	.
16E'LL	.	16e'LL	.	16B'LL	.	16gg#'LL	.	I
16C#'	.	16E'	.	16e'	.	16aa'	.	.
16BB'	.	16F#'	.	16d#'	.	16aa'	.	V7
16DD#'JJ	.	16BB'JJ	.	16f#'JJ	.	(32aaL	.	V65
.	.	.	.	.	.	32bbJJJ)	.	.
=19	=19	=19	=19	=19	=19	=19	=19	=19
!LO:TX:b:i:t=cresc.	!	!LO:TX:b:i:t=cresc.	!	!LO:TX:b:i:t=cresc.	!	!LO:TX:b:i:t=cresc.	!	!
16EE'LL	.	16B'LL	.	16g#'LL	.	16gg#'LL	.	I
16FF#'	.	16A'	.	16d#'	.	16ff#'	.	viio6
16GG#'	.	16G#'	.	16e'	.	16ee'	.	I6
16AA'JJ	.	16F#'JJ	.	16cX'JJ	.	16dd#'JJ	.	#viio65
16AA'LL	.	16FX'LL	.	16B'LL	.	16ddX'LL	.	v%2
16AA#'	.	16E'	.	16F#'	.	16cc#'	.	V65/V
16BB'	.	16D#'	.	16F#'	.	16b'	.	V
16BB'JJ	.	16F#'JJ	.	16B'JJ	.	16d#'JJ	.	.
2r	.	2r	.	2r	.	2ccX^	.	V(+b2)
=20	=20	=20	=20	=20	=20	=20	=20	=20
!	!LO:DY:a	!	!	!	!	!	!	!
8r	p p	16B'LL	.	4r	p	(4b	p	V
.	.	16g#'	.	.	.	.	.	.
8BB	.	16f#'	.	.	.	.	.	.
.	.	16B'JJ	.	.	.	.	.	.
8r	.	16B'LL	.	(4f#	.	8.dd#L	.	.
.	.	16g#'	.	.	.	.	.	.
8BB	.	16f#'	.	.	.	.	.	.
.	.	16B'JJ	.	.	.	32cc#LL	.	.
.	.	.	.	.	.	32bJJJ)	.	.
8r	.	16F#'LL	.	8.a#L	.	8dd#'L	.	V7/V
.	.	16g#'	.	.	.	.	.	.
8FF#	.	16f#'	.	.	.	8ee'	.	.
.	.	16F#'JJ	.	32g#LL	.	.	.	.
.	.	.	.	32f#JJJ)	.	.	.	.
8r	.	16F#'LL	.	8g#'L	.	8ff#'J	.	.
.	.	16f#'	.	.	.	.	.	.
8FF#	.	16e'	.	8a#'J	.	8r	.	.
.	.	16F#'JJ	.	.	.	.	.	.
=21	=21	=21	=21	=21	=21	=21	=21	=21
!LO:TX:b:i:t=poco	!	!LO:TX:b:i:t=poco	!	!LO:TX:b:i:t=poco	!	!LO:TX:b:i:t=poco	!	!
8r	.	16F#'LL	.	8b'L	.	(4dd#	.	V
!	!	!LO:TX:b:i:t=cresc.	!	!	!	!	!	!
.	.	16c#'	.	.	.	.	.	.
!LO:TX:b:i:t=cresc.	!	!	!	!LO:TX:b:i:t=cresc.	!	!	!	!
16qqAA#/	.	.	.	.	.	.	.	.
8BB	.	16B'	.	8cc#'J	.	.	.	.
.	.	16F#'JJ	.	.	.	.	.	.
!	!	!	!	!	!	!LO:TX:b:i:t=cresc.	!	!
8r	.	(4BB	.	16dd#'LL	.	8.ff#L	.	.
.	.	.	.	16cc#'	.	.	.	.
16qqCC#/	.	.	.	.	.	.	.	.
8BBB	.	.	.	16b'	.	.	.	.
.	.	.	.	16B'JJ	.	32eeLL	.	.
.	.	.	.	.	.	32dd#JJJ)	.	.
8r	.	8.EL	.	16B'LL	.	(8.gg#L	.	V(64)
.	.	.	.	16cc#'	.	.	.	.
16qqAA#/	.	.	.	.	.	.	.	.
8BB	.	.	.	16b'	.	.	.	.
.	.	32D#LL	.	16B'JJ	.	32ff#LL	.	.
.	.	32C#JJJ)	.	.	.	32eeJJJ)	.	.
!	!	!LO:TX:b:i:t=dim.	!	!LO:TX:b:i:t=dim.	!	!LO:TX:b:i:t=dim.	!	!
8r	.	(8.F#L	.	16B'LL	.	(8.aaXL	.	V7
.	.	.	.	16cc#'	.	.	.	.
!LO:TX:b:i:t=dim.	!	!	!	!	!	!	!	!
16qqA#/	.	.	.	.	.	.	.	.
8B	.	.	.	16b'	.	.	.	.
.	.	32ELL	.	16B'JJ	.	32gg#LL	.	.
.	.	32D#JJJ)	.	.	.	32ff#JJJ)	.	.
=22	=22	=22	=22	=22	=22	=22	=22	=22
!	!LO:DY:a	!	!LO:DY:a	!	!	!	!	!
(4EE	p p	8G#'L	p	16BLL	.	[4bb	p	I
!	!	!	!	!LO:TX:b:i:t=poco	!	!	!	!
.	.	.	.	32r	.	.	.	.
.	.	.	.	32bJJk	.	.	.	.
!	!	!LO:TX:b:i:t=cresc.	!	!	!	!	!	!
!	!	!LO:TX:b:i:t=poco	!	!LO:TX:b:i:t=cresc.	!	!	!	!
.	.	8AX'	.	16bLL	.	.	.	.
.	.	.	.	32r	.	.	.	.
.	.	.	.	32bJJk	.	.	.	.
!LO:TX:b:i:t=cresc.	!	!	!	!	!	!LO:TX:b:i:t=cresc.	!	!
!LO:TX:b:i:t=poco	!	!	!	!	!	!LO:TX:b:i:t=poco	!	!
8.GG#L	.	8B'J	.	8e	.	16bbLL]	.	I6
.	.	.	.	.	.	32r	.	.
.	.	.	.	.	.	32bbK	.	.
.	.	8r	.	8r	.	16bb	.	.
32FF#LL	.	.	.	.	.	32r	.	.
32EEJJJ)	.	.	.	.	.	32bbJJk	.	.
8FF#'L	.	4r	.	16.r	.	8dd#	.	V64
.	.	.	.	32bKLL	.	.	.	.
8GG#'	.	.	.	16b	.	8r	.	I6
.	.	.	.	32r	.	.	.	.
.	.	.	.	32bJJk	.	.	.	.
!LO:TX:b:i:t=dim.	!	!LO:TX:b:i:t=dim.	!	!LO:TX:b:i:t=dim.	!	!	!	!
8AAX'J	.	8B'L 8f#	.	8d#	.	16.r	.	V2
!	!	!	!	!	!	!LO:TX:b:i:t=dim.	!	!
.	.	.	.	.	.	32bbKLL	.	.
8r	.	8B'J 8g#	.	8r	.	16bb	.	I64
.	.	.	.	.	.	32r	.	.
.	.	.	.	.	.	32bbJJk	.	.
=23	=23	=23	=23	=23	=23	=23	=23	=23
8AA'L	pp	8a	pp	16.r	pp	8cccX	pp	iii.iv
.	.	.	.	32ccXKLL	.	.	.	.
8BB'	.	8r	.	16cc	.	8r	.	.
.	.	.	.	32r	.	.	.	.
.	.	.	.	32ccJJk	.	.	.	.
8CX'J	.	8cX'L	.	8AX	.	16.r	.	iv6
.	.	.	.	.	.	32cccKLL	.	.
8r	.	8dX'J	.	8r	.	16ccc	.	.
.	.	.	.	.	.	32r	.	.
.	.	.	.	.	.	32cccJJk	.	.
8C'L	.	16eLL	.	16.r	.	4ccc	.	VI
.	.	32r	.	.	.	.	.	.
.	.	32eK	.	32ccKLL	.	.	.	.
8DX'J	.	16e	.	16cc	.	.	.	.
.	.	32r	.	32r	.	.	.	.
.	.	32eJJk	.	32ccJJk	.	.	.	.
16ELL	.	16gXLL	.	16cc	.	16.r	.	VI6
32r	.	32r	.	32r	.	.	.	.
!LO:TX:b:i:t=cresc.	!	!LO:TX:b:i:t=cresc.	!	!LO:TX:b:i:t=cresc.	!	!LO:TX:b:i:t=cresc.	!	!
32EEJJk	.	32aK	.	32cXKLL 32gX	.	32cccKLL	.	V.ii43
16ELL	.	16a	.	16c 16g	.	16ccc	.	.
32r	.	32r	.	32r	.	32r	.	.
32EJJk	.	32aJJk	.	32cJJk 32g	.	32ggXJJk	.	.
=24	=24	=24	=24	=24	=24	=24	=24	=24
!LO:TX:b:i:t=poco	!	!LO:TX:b:i:t=poco	!	!LO:TX:b:i:t=poco	!	!LO:TX:b:i:t=poco	!	!
8D'L	mf	8GX'L	mf	8g'L	mf	16dddX'LL	mf	V(64)
.	.	.	.	.	.	16bb'	.	.
[8DJ	.	8B'J	.	8g'J	.	16gg'	.	.
.	.	.	.	.	.	16ddd'JJ	.	.
16DLL]	.	8.AL	.	8.f#L	.	4ccc	.	V7
16EE'	.	.	.	.	.	.	.	.
16DD'	.	.	.	.	.	.	.	.
16FF#'JJ	.	16DJk	.	16aJk	.	.	.	.
8GGX'L	.	8D'L	.	8g'L	.	16bb'LL	.	I
!	!	!	!	!	!	!LO:TX:b:i:t=cresc.	!	!
.	.	.	.	.	.	16gg'	.	.
!LO:TX:b:i:t=cresc.	!	!LO:TX:b:i:t=cresc.	!	!LO:TX:b:i:t=cresc.	!	!	!	!
[8DJ	.	8G'J	.	8B'J	.	16ddX'	.	V(64)
.	.	.	.	.	.	16bb'JJ	.	.
!	!	!	!	!	!	!LO:TX:a:i:t=ten.	!	!
16DLL]	.	8.F#L	.	4c	.	4aa	.	V7
16EE'	.	.	.	.	.	.	.	.
16DD'	.	.	.	.	.	.	.	.
16FF#'JJ	.	16DJk	.	.	.	.	.	.
=25	=25	=25	=25	=25	=25	=25	=25	=25
!LO:TX:b:i:t=poco	!LO:DY:a	!LO:TX:b:i:t=poco	!LO:DY:a	!LO:TX:b:i:t=poco	!	!LO:TX:b:i:t=poco	!	!
16GG'LL	f f	16D'LL	f	16B'LL	.	8ggL	f	I
16BB'	.	16D'	.	16g'	.	.	.	.
16GG'	.	16D'	.	16d'	.	[8dddJ	.	.
16D'JJ	.	16D'JJ	.	16b'JJ	.	.	.	.
4C	.	4D	.	4a	.	16dddLL]	.	V2
.	.	.	.	.	.	16ee'	.	.
.	.	.	.	.	.	16dd'	.	.
.	.	.	.	.	.	16ff#'JJ	.	.
16BB'LL	.	16D'LL	.	16g'LL	.	16gg'LL	.	I6
16EE'	.	16D'J	.	16b'J	.	16gg'J	.	.
16DD'	sf	8D'J	sf	8cc'J	sf	8aa'J	sf	V7
16FF#'JJ	.	.	.	.	.	.	.	.
16GG'LL	.	16D'LL	.	16b'LL	.	16gg'LL	.	I
16BB'J	.	16D'J	.	16g'J	.	16dd'	.	.
8C^J	.	8D^J	.	8a^J	.	16dd'	.	V2
.	.	.	.	.	.	16ff#'JJ	.	.
=26	=26	=26	=26	=26	=26	=26	=26	=26
!	!LO:DY:a	!	!LO:DY:a	!	!	!LO:TX:a:i:t=Cantabile.	!	!
(8BBL	p p	(8BBL	p	8gL	.	(16aaKL	p	I6
!	!	!	!	!	!	!LO:TX:b:i:t=dolce	!	!
.	.	.	.	.	.	8gg)	.	.
.	.	.	.	32qqee/LLL	.	.	.	.
.	.	.	.	32qqdd/	.	.	.	.
.	.	.	.	32qqcc#/JJJ	.	.	.	.
16GL	.	[8GJ)	.	16dd'L	.	.	.	.
16dJJ)	.	.	.	16g'JJ	.	16ggJk	.	.
(8CL	.	4G] 4C	.	8r	.	(16aaKL	.	IV
.	.	.	.	.	.	8gg)	.	.
.	.	.	.	32qqff#/LLL	.	.	.	.
.	.	.	.	32qqee/	.	.	.	.
.	.	.	.	32qqdd#/JJJ	.	.	.	.
16GL	.	.	.	16ee'LL	.	.	.	.
16eJJ)	.	.	.	16g'JJ	.	16ggJk	.	.
(8BBL	.	4BB 4G	.	8r	.	(16aaKL	.	I6
.	.	.	.	.	.	8gg)	.	.
.	.	.	.	32qqee/LLL	.	.	.	.
.	.	.	.	32qqddX/	.	.	.	.
.	.	.	.	32qqcc#/JJJ	.	.	.	.
16GL	.	.	.	16dd'LL	.	.	.	.
16dJJ)	.	.	.	16g'JJ	.	16ggJk	.	.
(8AAL	.	4D 4c	.	8r	.	(8.cccL	.	V43
.	.	.	.	32qqdd/LLL	.	.	.	.
.	.	.	.	32qqccX/	.	.	.	.
.	.	.	.	32qqb/JJJ	.	.	.	.
16DL	.	.	.	16cc'LL	.	.	.	.
16cJJ)	.	.	.	16d'JJ	.	32aaLL	.	.
.	.	.	.	.	.	32ff#JJJ)	.	.
=27	=27	=27	=27	=27	=27	=27	=27	=27
(8GGL	.	(8DL 8B	.	8r	.	(16aaLL	.	I
.	.	.	.	.	.	16gg	.	.
.	.	.	.	32qqcc/LLL	.	.	.	.
.	.	.	.	32qqb/	.	.	.	.
.	.	.	.	32qqa/JJJ	.	.	.	.
16DL	.	8BBJ)	.	16b'LL	.	16aa)	.	.
16GJJ)	.	.	.	16B'JJ	.	16bb'JJ	.	.
(8CCL	.	4C 4G	.	8r	.	16ee'LL	.	IV
.	.	.	.	.	.	16ee'	.	.
.	.	.	.	32qqa/LLL	.	.	.	.
.	.	.	.	32qqg/	.	.	.	.
.	.	.	.	32qqf#/JJJ	.	.	.	.
16CL	.	.	.	16g'LL	.	16ff#'	.	.
16EJJ)	.	.	.	16G'JJ	.	16gg'JJ	.	.
(8DDL	.	8BBL 8G	.	8r	.	16eeLL	.	V(64)
.	.	.	.	.	.	16dd	.	.
.	.	.	.	32qqe/LLL	.	.	.	.
.	.	.	.	32qqd/	.	.	.	.
.	.	.	.	32qqc#/JJJ	.	.	.	.
16GGL	.	(8bJ	.	16d'LL	.	16cc'	.	.
16DJJ)	.	.	.	16G'JJ	.	16b'JJ	.	.
(8DDL	.	8ccL)	.	8r	.	4aT	.	V7
.	.	.	.	32qqee/LLL	.	.	.	.
.	.	.	.	32qqdd/	.	.	.	.
.	.	.	.	32qqcc#/JJJ	.	.	.	.
16FF#L	.	8c'J	.	16dd'LL	.	.	.	.
16DJJ)	.	.	.	16f#'JJ	.	.	.	.
=28	=28	=28	=28	=28	=28	=28	=28	=28
!LO:TX:b:i:t=poco	!LO:DY:a	!LO:TX:b:i:t=poco	!	!	!LO:DY:a	!LO:TX:b:i:t=poco	!	!
16D'LL	mf mf	16B'LL	.	8r	mf	8gL	.	I64
16B'	.	16g'	.	.	.	.	.	.
!	!	!	!	!LO:TX:b:i:t=poco	!	!	!	!
16G'	.	16d'	.	16B'LL	mf	[8ddJ	.	.
16d'JJ	.	16b'JJ	.	16g'JJ	.	.	.	.
4c	.	4a	.	4f#	.	16ddLL]	.	V2
.	.	.	.	.	.	16ee'	.	.
.	.	.	.	.	.	16dd'	.	.
.	.	.	.	.	.	16ff#'JJ	.	.
16B'LL	.	16g'LL	.	16g'LL	.	16gg'LL	.	I6
16B'J	.	16E'	.	16dd'J	.	16gg'J	.	.
8c'J	.	16D'	>	8dd'J	.	8aa'J	.	V2
.	.	16F#'JJ	.	.	.	.	.	.
16B'LL	.	16G'LL	]	16d'LL	.	16gg'LL	.	I6
16G'J	.	16d'J	.	16b'J	.	16bb'	.	.
8A^J	.	8d^J	.	8cc^J	.	16dd'	.	V43
.	.	.	.	.	.	16ff#'JJ	.	.
=29	=29	=29	=29	=29	=29	=29	=29	=29
(8BBL	p	8r	p	(8ddL	p	(16aaKL	p	I6
.	.	.	.	.	.	8gg)	.	.
.	.	32qqe/LLL	.	.	.	.	.	.
.	.	32qqd/	.	.	.	.	.	.
.	.	32qqc#/JJJ	.	.	.	.	.	.
16GL	.	16d'LL	.	8bJ)	.	.	.	.
16dJJ)	.	16G'JJ	.	.	.	16ggJk	.	.
(8CL	.	8r	.	[4G [4g	.	(16aaKL	.	IV
.	.	.	.	.	.	8gg)	.	.
.	.	32qqfX/LLL	.	.	.	.	.	.
.	.	32qqe/	.	.	.	.	.	.
.	.	32qqd#/JJJ	.	.	.	.	.	.
16GL	.	16eLL	.	.	.	.	.	.
16eJJ)	.	16G'JJ	.	.	.	16ggJk	.	.
!LO:TX:b:i:t=cresc.	!	!LO:TX:b:i:t=cresc.	!	!LO:TX:b:i:t=cresc.	!	!LO:TX:b:i:t=cresc.	!	!
(8DL	.	8r	.	8G] 8g]	.	(16aaKL	.	V43/IV
.	.	.	.	.	.	8gg)	.	.
.	.	32qqg/LLL	.	.	.	.	.	.
.	.	32qqf/	.	.	.	.	.	.
.	.	32qqe/JJJ	.	.	.	.	.	.
16GL	.	16fLL	.	4.ffX	.	.	.	.
16fXJJ)	.	16BJJ	.	.	.	16ggJk	.	.
(8DL	.	8r	.	.	.	(8.fffXL	.	.
.	.	32qqa/LLL	.	.	.	.	.	.
.	.	32qqg/	.	.	.	.	.	.
.	.	32qqf#/JJJ	.	.	.	.	.	.
16GL	.	16gLL	.	.	.	.	.	.
16fJJ)	.	16BJJ	.	.	.	32dddLL	.	.
.	.	.	.	.	.	32bbJJJ)	.	.
=30	=30	=30	=30	=30	=30	=30	=30	=30
(8EEL	p	8r	p	(8gg	p	(16dddLL 2.ryy	p	IV6-I.I6
.	.	.	.	.	.	16ccc	.	.
.	.	32qqA/LLL	.	.	.	.	.	.
.	.	32qqG/	.	.	.	.	.	.
.	.	32qqF#/JJJ	.	.	.	.	.	.
16CL	.	16GLL	.	4cc)	.	16ddd)	.	.
16GJJ)	.	16CXJJ	.	.	.	16eee'JJ	.	.
(8FFXL	.	8r	.	.	.	16aa'LL	.	IV
.	.	.	.	.	.	16aa'	.	.
.	.	32qqb/LLL	.	.	.	.	.	.
.	.	32qqa/	.	.	.	.	.	.
.	.	32qqg#/JJJ	.	.	.	.	.	.
16CL	.	16aLL	.	4c	.	16bb'	.	.
16AJJ)	.	16cXJJ	.	.	.	16ccc'JJ	.	.
(8GGL	.	8r	.	.	.	(16aaLL	.	V(64)
.	.	.	.	.	.	16gg)	.	.
.	.	32qqdd/LLL	.	.	.	.	.	.
.	.	32qqcc/	.	.	.	.	.	.
!	!	!	!	!LO:TX:b:i:t=cresc.	!	!	!	!
.	.	32qqb/JJJ	.	.	.	.	.	.
16EL	.	16ccLL	.	(8ccL	.	16ffX'	.	.
16cJJ)	.	16eJJ	.	.	.	16ee'JJ	.	.
!	!	!	!	!	!	!LO:TX:b:i:t=cresc.	!	!
(8GGL	.	8r	.	8b	.	4ddT	.	V
.	.	32qqa/LLL	.	.	.	.	.	.
.	.	32qqgX/	.	.	.	.	.	.
!LO:TX:b:i:t=cresc.	!	!LO:TX:b:i:t=cresc.	!	!	!	!	!	!
.	.	32qqf#/JJJ	.	.	.	.	.	.
16DL	.	16gLL	.	16BL	.	.	.	.
16B-XJJ)	.	16GJJ	.	16B-XJJ)	.	.	.	.
.	.	.	.	.	.	32qqcc#/LLL	.	.
.	.	.	.	.	.	32qqdd/JJJ	.	.
=31	=31	=31	=31	=31	=31	=31	=31	=31
!	!	!	!LO:DY:a	!	!LO:DY:a	!	!	!
16GG'LL	pp	16E'LL	pp pp	16A'LL	pp	16cc#'LL	.	V2/ii
16EE'	.	16C#'	.	16A'	.	16ee'	.	.
16GG'	.	16e'	.	16A'	.	16cc#'	.	.
16CC#'JJ	.	16E'JJ	.	16A'JJ	.	16gg'JJ	.	V65/ii
16DD'LL	.	16FX'LL	.	16A'LL	.	4ffX	.	ii
16D'	.	16A'	.	16fX'	.	.	.	.
16AA'	.	16A'	.	16d'	.	.	.	.
16D'JJ	.	16A'JJ	.	16a'JJ	.	.	.	.
16C#'LL	.	16A'LL	.	16a'LL	.	16ff'LL	.	V/ii
16AA'	.	16c#'	.	16a'	.	16ee'	.	.
16D'	.	16d'	.	16a'	.	16ff'	.	V65
16BB'JJ	.	16d'JJ	.	16g'JJ	.	16ff'JJ	.	.
!LO:TX:b:i:t=cresc.	!	!LO:TX:b:i:t=cresc.	!	!LO:TX:b:i:t=cresc.	!	!LO:TX:b:i:t=cresc.	!	!
16CX'LL	.	16G'LL	.	16g'LL	.	16ee'LL	.	I
16CCX'	.	16G'	.	16e'	.	16aa'	.	vi65
16DD'	.	16G'	.	16f'	.	16gg'	.	V43
16DD'JJ	.	16fX'JJ	.	16g'JJ	.	16bb'JJ	.	.
=32	=32	=32	=32	=32	=32	=32	=32	=32
16CC'LL	p	8e	p	16gKL	p	4ccc	p	I
16G'	.	.	.	8G	.	.	.	.
16E'	.	8r	.	.	.	.	.	.
16G'JJ	.	.	.	16GJk	.	.	.	.
16D'LL	.	8.r	.	(16AKL	.	4r	.	.
16G'	.	.	.	8G)	.	.	.	.
16C'	.	.	.	.	.	.	.	.
16G'JJ	.	16C	.	16GJk	.	.	.	.
16BB'LL	.	(16AKL	.	(16aKL	.	32r	.	V6
.	.	.	.	.	.	32g'LLL	.	.
16G'	.	8G)	.	8g)	.	32a'	.	.
.	.	.	.	.	.	32b'	.	.
16AA'	.	.	.	.	.	32cc'	.	.
.	.	.	.	.	.	32dd'	.	.
16G'JJ	.	16GJk	.	16gJk	.	32ee'	.	.
.	.	.	.	.	.	32ff#'JJJ	.	.
16GGLL	.	(8.fXL	.	(8.ffXL	.	32gg'LLL	.	V7
.	.	.	.	.	.	32aa'	.	.
16G	.	.	.	.	.	32bb'	.	.
.	.	.	.	.	.	32ccc'JJJ	.	.
16GG	.	.	.	.	.	16ddd'LL	.	.
16GJJ	.	32dLL	.	32ddLL	.	16ffX'JJ	.	.
.	.	32BJJJ)	.	32bJJJ)	.	.	.	.
=33	=33	=33	=33	=33	=33	=33	=33	=33
16C	.	4c	.	4cc	.	16ee'LL	.	I
8EEL	.	.	.	.	.	16ee'	.	I6
.	.	.	.	.	.	16cc'	.	.
16EEJk	.	.	.	.	.	16ee'JJ	.	.
(16FFXKL	.	8.r	.	4r	.	16b'LL	.	.
8EE)	.	.	.	.	.	16ee'	.	vi64
.	.	.	.	.	.	16a'	.	.
16EEJk	.	16E	.	.	.	16ee'JJ	.	.
(16FFKL	.	(16FXKL	.	32r	.	16g#'LL	.	V/vi
.	.	.	.	32e'LLL	.	.	.	.
8EE)	.	8E)	.	32f#'	.	16ee'	.	V2/VII
.	.	.	.	32g#'JJJ	.	.	.	.
.	.	.	.	32a'LLL	.	16f#'	.	.
.	.	.	.	32b'	.	.	.	.
16EEJk	.	16EJk	.	32cc#'	.	16ee'JJ	.	.
.	.	.	.	32dd#'JJJ	.	.	.	.
(8.DXL	.	(8.dXL	.	32ee'LLL	.	16eLL	.	V2/vi
.	.	.	.	32ff#'	.	.	.	.
.	.	.	.	32gg#'	.	16ee	.	.
.	.	.	.	32aa'JJJ	.	.	.	.
.	.	.	.	16bb'LL	.	16g#	.	.
32BBLL	.	32BLL	.	16ddX'JJ	.	16eeJJ	.	V65/vi
32GG#JJJ)	.	32G#JJJ)	.	.	.	.	.	.
=34	=34	=34	=34	=34	=34	=34	=34	=34
(16BB-XKL	.	32E'LLL	.	16cc#KL	.	16eeKL	.	V7/ii
.	.	32A'	.	.	.	.	.	.
8AA)	.	32B'	.	8ee	.	8c#	.	.
.	.	32c#'	.	.	.	.	.	.
.	.	32d'	.	.	.	.	.	.
.	.	32e'	.	.	.	.	.	.
[16AAJk	.	32f#'	.	[16eeJk	.	16c#Jk	.	.
.	.	32g#'JJJ	.	.	.	.	.	.
16AAKL]	.	32a'LLL	.	16ee]	.	(8.ggL	.	.
.	.	32b'	.	.	.	.	.	.
8AA	.	32cc#'	.	8c#L	.	.	.	.
.	.	32dd'JJJ	.	.	.	.	.	.
.	.	16ee'LL	.	.	.	.	.	.
16AAJk	.	16gXJJ	.	[16aJk	.	32eeLL	.	.
.	.	.	.	.	.	32cc#JJJ)	.	.
8DL	.	16f#KL	.	16a]	.	32dd'LLL	.	V/V
.	.	.	.	.	.	32dd'	.	.
.	.	8D	.	8f#L 8a	.	32ee'	.	.
.	.	.	.	.	.	32ff#'	.	.
8DDJ	.	.	.	.	.	32gg'	.	.
.	.	.	.	.	.	32aa'	.	.
.	.	16DJk	.	[16f#Jk [16a	.	32bb'	.	.
.	.	.	.	.	.	32ccc#'JJJ	.	.
8r	.	(8.AL	.	16f#KL] 16a]	.	32ddd'LLL	.	.
.	.	.	.	.	.	32eee'	.	.
.	.	.	.	8f# 8a	.	32fff#'	.	.
.	.	.	.	.	.	32ggg'JJJ	.	.
8CCX	.	.	.	.	.	16aaa'LL	.	V2/V
.	.	32F#LL	.	16f#Jk 16a	.	16ddd'JJ	.	.
.	.	32DJJJ)	.	.	.	.	.	.
=35	=35	=35	=35	=35	=35	=35	=35	=35
16BBB	.	16DKL	.	32g'LLL	.	(16eeeKL	.	V6(6)
.	.	.	.	32G'	.	.	.	.
8GL	.	8BB	.	32A'	.	8ddd)	.	V
.	.	.	.	32B'	.	.	.	.
.	.	.	.	32cX'	.	.	.	.
.	.	.	.	32d'	.	.	.	.
16GJk	.	[16BBJk	.	32e'	.	16dddJk	.	.
.	.	.	.	32f#'JJJ	.	.	.	.
(16AKL	.	16BBKL]	.	32g'LLL	.	(8.dddL	.	.
.	.	.	.	32a'	.	.	.	.
8G)	.	8BB	.	32b'	.	.	.	.
.	.	.	.	32ccX'J	.	.	.	.
.	.	.	.	16dd'	.	.	.	.
16GJk	.	16BBJk	.	16g'JJ	.	32bbLL	.	.
.	.	.	.	.	.	32ggJJJ)	.	.
32D'LLL	.	32C'LLL	.	16f#KL	.	(16eeeKL	.	V7/V
32DD'	.	32F#'	.	.	.	.	.	.
32EE'	.	32G'	.	8a	.	8ddd)	.	.
32FF#'	.	32A'	.	.	.	.	.	.
32GG'	.	32B'	.	.	.	.	.	.
32AA'	.	32c'	.	.	.	.	.	.
32BB'	.	32d'	.	[16aJk	.	16ddJk	.	.
32C'JJJ	.	32e'JJJ	.	.	.	.	.	.
32D'LLL	.	32f#'LLL	.	16aKL]	.	(8.cccXL	.	.
32E'	.	32g'	.	.	.	.	.	.
32F#'	.	32a'	.	8a	.	.	.	.
32G'JJJ	.	32b'JJJ	.	.	.	.	.	.
16A'LL	.	16cc'LL	.	.	.	.	.	.
16DDJJ	.	16F#JJ	.	16aJk	.	32aaLL	.	.
.	.	.	.	.	.	32ff#JJJ)	.	.
=36	=36	=36	=36	=36	=36	=36	=36	=36
2EE-X	>	(8F#L	>	2a	>	(8.cccL	>	V7(b2)/V
.	.	[8cJ)	.	.	.	.	.	.
.	.	.	.	.	.	32aaLL	.	.
.	.	.	.	.	.	32ff#JJJ	.	.
.	.	4c_	]	.	.	4gg)	]	.
4DD	] p	(8cL]	p	(4a	] p	8aa	p	V7/V
.	.	8F#J	.	.	.	8r	.	.
4r	.	8.AL	.	8.ccL	.	4r	.	.
.	.	32GLL	.	32bLL	.	.	.	.
.	.	32F#JJJ)	.	32aJJJ)	.	.	.	.
=37	=37	=37	=37	=37	=37	=37	=37	=37
2EE-X	>	(8F#L	>	[2a	>	(8.cccL	>	V7(b2)/V
.	.	[8cJ)	.	.	.	.	.	.
.	.	.	.	.	.	32aaLL	.	.
.	.	.	.	.	.	32ff#JJJ	.	.
.	.	4c_	]	.	.	4gg)	]	.
!LO:TX:b:i:t=dim.	!	!LO:TX:b:i:t=dim.	!	!LO:TX:b:i:t=dim.	!	!LO:TX:b:i:t=dim.	!	!
2DD	]	(8cL]	.	(4a]	]	(4aa	.	V7/V
.	.	8F#J	.	.	.	.	.	.
.	.	4FX)	.	4g)	.	8.bbL	.	V43
.	.	.	.	.	.	32aaLL	.	.
.	.	.	.	.	.	32ggJJJ)	.	.
=38	=38	=38	=38	=38	=38	=38	=38	=38
16CC'LL	p	8EL	p	8gL	p	(8cccL	p	I
16AA'	.	.	.	.	.	.	.	.
!	!	!LO:TX:b:i:t=dolce	!	!LO:TX:b:i:t=dolce	!	!LO:TX:b:i:t=dolce	!	!
16GG'	.	16E'L	.	16e'L	.	8ccJ	.	.
32FFX'L	.	16G'JJ	.	16g'JJ	.	.	.	.
32EE'JJJ	.	.	.	.	.	.	.	.
16CC'LL	.	8r	.	8r	.	8.eeL	.	.
16AA'	.	.	.	.	.	.	.	.
16GG'	.	16E'LL	.	16e'LL	.	.	.	.
32FF'L	.	16G'JJ	.	16g'JJ	.	32ddLL	.	.
32EE'JJJ	.	.	.	.	.	32ccJJJ)	.	.
!LO:TX:a:i:t=sempre	!	!	!	!	!	!	!	!
16BBBLL	.	8r	.	8r	.	8dd'L	.	V65
16AA	.	.	.	.	.	.	.	.
16GG	.	16E'LL	.	16e'LL	.	8ee'	.	.
!LO:TX:a:i:t=staccato	!	!	!	!	!	!	!	!
32DDL	.	16G'JJ	.	16g'JJ	.	.	.	.
32CC#JJJ	.	.	.	.	.	.	.	.
16DDLL	.	8r	.	8r	.	8ffX'J	.	V43
16BB	.	.	.	.	.	.	.	.
16GG	.	16E'LL	.	16g'LL	.	8r	.	.
32EEL	.	16G'JJ	.	16b'JJ	.	.	.	.
32DDJJJ	.	.	.	.	.	.	.	.
=39||	=39||	=39||	=39||	=39||	=39||	=39||	=39||	=39||
*k[]	*	*k[]	*	*k[]	*	*k[]	*	*
*C:	*	*C:	*	*C:	*	*C:	*	*
16CCXLL	.	8r	.	8r	.	(4ee	.	I
16AA	.	.	.	.	.	.	.	.
16GG	.	16C'LL	.	16c'LL	.	.	.	.
32FFL	.	16E'JJ	.	16e'JJ	.	.	.	.
32EEJJJ	.	.	.	.	.	.	.	.
16EELL	.	8r	.	8r	.	8.ggL	.	I6
16D	.	.	.	.	.	.	.	.
16C	.	16E'LL	.	16e'LL	.	.	.	.
32AAL	.	16c'JJ	.	16cc'JJ	.	32ffLL	.	.
32GGJJJ	.	.	.	.	.	32eeJJJ)	.	.
16FFLL	.	8r	.	8r	.	8aa'L	.	IV
16E	.	.	.	.	.	.	.	.
16D	.	16FX'LL	.	16fX'LL	.	8bb'	.	viio64
32AAL	.	16B'JJ	.	16b'JJ	.	.	.	.
32GGJJJ	.	.	.	.	.	.	.	.
16AALL	.	8r	.	8r	.	8ccc'	.	vi
16G	.	.	.	.	.	.	.	.
16F	.	16G'LL	.	16g'LL	.	8ddd'J	.	V65
32CL	.	16fX'JJ	.	16ffX'JJ	.	.	.	.
32BBJJJ	.	.	.	.	.	.	.	.
=40	=40	=40	=40	=40	=40	=40	=40	=40
!	!LO:DY:a	!	!	!	!	!	!	!
(4CC	p p	8eL	.	16ee'LL	p	16gg'LL	p	I
.	.	.	.	16a'	.	16aa'	.	.
.	.	(8CJ	.	16g'	.	16gg'	.	.
.	.	.	.	32f'L	.	32ff'L	.	.
.	.	.	.	32e'JJJ	.	32ee'JJJ	.	.
8.EEL	.	8.EL	.	16c'LL	.	16cc'LL	.	I6
.	.	.	.	16a'	.	16aa'	.	.
.	.	.	.	16g'	.	16gg'	.	.
32DDLL	.	32DLL	.	32f'L	.	32ff'L	.	.
32CCJJJ)	.	32CJJJ)	.	32e'JJJ	.	32ee'JJJ	.	.
8DD'L	.	8D'L	.	16f'LL	.	16ff'LL	.	ii
.	.	.	.	16a'	.	16aa'	.	.
8EE'	.	8E'	.	16g'	.	16gg'	.	I6
.	.	.	.	32f'L	.	32dd'L	.	.
.	.	.	.	32e'JJJ	.	32cc'JJJ	.	.
8FF'J	.	8F'J	.	16d'LL	.	16b'LL	.	V2
.	.	.	.	16a'	.	16aa'	.	.
8r	.	8r	.	16g'	.	16bb'	.	.
.	.	.	.	32a'L	.	32ccc'L	.	.
.	.	.	.	32b'JJJ	.	32ddd'JJJ	.	.
=41	=41	=41	=41	=41	=41	=41	=41	=41
!LO:TX:a:i:t=stacc.	!	!	!	!	!	!	!	!
16CCLL	.	(4C	.	8cc	.	8eeeL	.	I
16AA	.	.	.	.	.	.	.	.
16GG	.	.	.	8r	.	(8eeJ	.	.
32FFL	.	.	.	.	.	.	.	.
32EEJJJ	.	.	.	.	.	.	.	.
16EELL	.	8.EL	.	8r	.	8.ggL	.	I6
16D	.	.	.	.	.	.	.	.
16C	.	.	.	8cc	.	.	.	.
32AAL	.	32DLL	.	.	.	32ffLL	.	.
32GGJJJ	.	32CJJJ)	.	.	.	32eeJJJ)	.	.
!LO:TX:b:i:t=cresc.	!	!LO:TX:b:i:t=cresc.	!	!LO:TX:b:i:t=cresc.	!	!LO:TX:a:i:t=cresc.	!	!
16FFLL	.	8F'L	.	(8.aL	.	8aa'L	.	IV
16E	.	.	.	.	.	.	.	.
16D	.	8F'	.	.	.	8bb'	.	viio64
32AAL	.	.	.	32gLL	.	.	.	.
32GGJJJ	.	.	.	32fJJJ)	.	.	.	.
16AALL	.	8F'	.	(8.fL	.	8ccc'	.	IV6
16G	.	.	.	.	.	.	.	.
16F	.	8F'J	.	.	.	8ddd'J	.	V65
32CL	.	.	.	32eLL	.	.	.	.
32BBJJJ	.	.	.	32dJJJ)	.	.	.	.
=42	=42	=42	=42	=42	=42	=42	=42	=42
!	!	!	!LO:DY:a	!	!	!	!	!
16AALL	p <	(8EL	p p <	(8gL	<	(8.eeeL	p <	vii%7/V
16G	.	.	.	.	.	.	.	.
16F#	.	[8F#	.	[8a	.	.	.	.
32BBL	.	.	.	.	.	32dddLL	.	V6
32AAJJJ	.	.	.	.	.	32cccJJJ)	.	.
16BBLL	[ >	8F#]	[ >	8a]	[ >	8ddd'L	[ >	iii
16E	.	.	.	.	.	.	.	.
16D	.	8GJ)	.	8bJ)	.	8gg'J	.	I64
32CL	.	.	.	.	.	.	.	.
32BBJJJ	.	.	.	.	.	.	.	.
(8EEL	]	16G'LL	] <	(8.eeL	] <	(8ggL	] <	vi
.	.	16g'	.	.	.	.	.	.
[8FF#	.	16c'	[ >	.	.	[8aa	.	V65/V
.	.	32B'L	.	32ddLL	>	.	.	.
.	.	32A'JJJ	.	32ccJJJ)	.	.	.	.
8FF#]	.	16A'LL	]	8dd'L	]	8aa]	[ >	.
.	.	16d'	.	.	.	.	.	.
16GGL	.	16d'	.	8g'J	]]	8bbJ)	]]	V
16GJJ)	.	32c'L	.	.	.	.	.	.
.	.	32B'JJJ	.	.	.	.	.	.
=43	=43	=43	=43	=43	=43	=43	=43	=43
!LO:TX:b:i:t=cresc.	!	!LO:TX:b:i:t=cresc.	!	!LO:TX:b:i:t=cresc.	!	!LO:TX:b:i:t=cresc.	!	!
16AA'LL	p	(8EL	p	(8gL	p	(8.eeeL	p	vii%7
16G'	.	.	.	.	.	.	.	.
16F#'	.	8F#	.	8a	.	.	.	.
32BB'L	.	.	.	.	.	32dddLL	.	I6
!LO:TX:a:i:t=stacc.	!	!	!	!	!	!	!	!
32AA'JJJ	.	.	.	.	.	32cccJJJ)	.	.
16BBLL	.	8D)	.	8g)	.	8ddd'L	.	.
16E	.	.	.	.	.	.	.	.
16D	.	8BB'J	.	8g'J	.	8ggg'J	.	I64
32CL	.	.	.	.	.	.	.	.
32BBJJJ	.	.	.	.	.	.	.	.
16CLL	.	8G'L	.	8e'L	.	8aa'L	.	ii65
16E	.	.	.	.	.	.	.	.
16D	.	8F#'	.	8A'	.	8ddd'J	.	V
32EEL	.	.	.	.	.	.	.	.
32DDJJJ	.	.	.	.	.	.	.	.
16GGLL	.	8D'	.	8B-X'	.	8gg'L	.	i
16G	.	.	.	.	.	.	.	.
16C#	.	8E'J	.	8A'J	.	8aa'J	.	V6/V
!LO:TX:b:i:t=cresc.	!	!	!	!	!	!	!	!
32DDL	.	.	.	.	.	.	.	.
32CC#JJJ	.	.	.	.	.	.	.	.
=44	=44	=44	=44	=44	=44	=44	=44	=44
!	!	!LO:TX:a:i:t=cresc.	!LO:DY:a	!LO:TX:b:i:t=cresc.	!	!LO:TX:b:i:t=cresc.	!	!
16DD'LL	p	8FX'L	p p	8A'L	.	8ff'L	p	I.ii
16D'	.	.	.	.	.	.	.	.
16BB'	.	8D'	.	8G'	.	8gg'J	.	V6
32CCX'L	.	.	.	.	.	.	.	.
32BBB'JJJ	.	.	.	.	.	.	.	.
16CC'LL	.	8E'	.	8G'	.	8ee'L	.	I
16G'	.	.	.	.	.	.	.	.
16E'	.	8E'J	.	8g'J	.	8ccc'J	.	.
32FFX'L	.	.	.	.	.	.	.	.
32EE'JJJ	.	.	.	.	.	.	.	.
16FF'LL	.	8F'L	.	8a'L	.	8dd'L	.	ii6
16FX'	.	.	.	.	.	.	.	.
16D'	.	8F'J	.	8b'J	.	8gg'J	.	V7
32AA'L	.	.	.	.	.	.	.	.
32GG'JJJ	.	.	.	.	.	.	.	.
8CX'	.	8E'	.	8g'	.	8cc'	.	I\\
8r	.	8r	.	8r	.	8r	.	.
=45	=45	=45	=45	=45	=45	=45	=45	=45
!	!	!	!	!LO:TX:a:B:t=pizz.	!	!	!	!
!	!	!LO:TX:a:B:t=pizz.	!	!LO:TX:a:B:t=pizz.	!	!	!	!
8AAL	.	2r	.	4r	.	8r	.	V.ii
8DJ	.	.	.	.	.	8r	.	V
8GG	.	.	.	8BL	.	4r	.	I
8r	.	.	.	8gJ	.	.	.	.
8D	.	8aL	.	8f#	.	4r	.	V
8r	.	8dd	.	8r	.	.	.	.
!	!	!	!	!	!	!LO:TX:b:i:t=cresc.	!	!
8G	.	8b	.	8fXL	.	8dd'L	.	I.V7
8r	.	8gJ	.	8fJ	.	8bb'J	.	.
=46	=46	=46	=46	=46	=46	=46	=46	=46
!LO:TX:a:B:t=arco	!	!LO:TX:a:B:t=arco	!	!LO:TX:a:B:t=arco	!	!	!	!
16qqA/	fp	.	.	.	.	.	.	.
16G'LL	.	4g	fp	4e	fp	4ccc	fp	I64
16F#'	.	.	.	.	.	.	.	.
16G'	.	.	.	.	.	.	.	.
32c'L	.	.	.	.	.	.	.	.
32f'JJJ	.	.	.	.	.	.	.	.
16qqf/	.	.	.	.	.	16qqdd/	.	I6
16e'LL	.	16E'LL	.	8g'L	.	16cc'LL	.	.
16d'	.	16F'	.	.	.	16b'	.	.
16e'	.	16E'	.	8G'J	.	16cc'	.	.
16g'JJ	.	16C'JJ	.	.	.	16ee'JJ	.	.
.	.	.	.	16qqA/	.	.	.	.
8g'	.	8F'L	.	16G'LL	.	8dd'L	.	V2
.	.	.	.	16F#'	.	.	.	.
*clefF4	*	*	*	*	*	*	*	*
8GG	.	8F'	.	16G'	.	8dd'	.	V7
.	.	.	.	16B'JJ	.	.	.	.
16qqD/	.	.	.	.	.	.	.	.
16C'LL	.	8E'J	.	8c'	.	8cc'J	.	I
16BB'	.	.	.	.	.	.	.	.
16C'	.	8r	.	8r	.	8r	.	.
16E'JJ	.	.	.	.	.	.	.	.
=47	=47	=47	=47	=47	=47	=47	=47	=47
.	.	.	.	16qqa/	.	.	.	.
8CC	.	8E	.	16g'LL	.	4ee	.	.
.	.	.	.	16f#'	.	.	.	.
8r	.	8r	.	16g'	.	.	.	.
.	.	.	.	16cc'JJ	.	.	.	.
.	.	16qqD/	.	.	.	16qqff/	.	.
16EE'LL	.	16C'LL	.	4r	.	16ee'LL	.	.
16FF'	.	16BB'	.	.	.	16dd'	.	.
16EE'	.	16C'	.	.	.	16ee'	.	.
16CC'JJ	.	16E'JJ	.	.	.	16gg'JJ	.	.
.	.	.	.	16qqa/	.	.	.	.
8GG'L	.	8D'L	.	16g'LL	.	8ff'L	.	V7
.	.	.	.	16f#'	.	.	.	.
8GG'J	.	8D'J	.	16g'	.	8ff'	.	.
.	.	.	.	16b'JJ	.	.	.	.
16C'LL	.	16E'LL	.	16cc'LL	.	8ee'J	.	I
16D'	.	16F'	.	16b'	.	.	.	.
16C'	.	16E'	.	16cc'	.	8r	.	.
16CC'JJ	.	16C'JJ	.	16ee'JJ	.	.	.	.
=48	=48	=48	=48	=48	=48	=48	=48	=48
.	.	.	.	16qqb/	.	.	.	.
!	!	!	!LO:DY:a	!	!	!	!	!
8e'L	pp	4r	pp pp	16a'LL	.	8gg'L	pp	V43/ii
.	.	.	.	16g#'	.	.	.	.
8e'J	.	.	.	16a'	.	8gg'	.	.
.	.	.	.	16cc#'JJ	.	.	.	.
16qqe/	.	.	.	.	.	.	.	.
16d'LL	.	16D'LL	.	8dd'	.	8ff'J	.	ii
16c#'	.	16C#'	.	.	.	.	.	.
16d'	.	16D'	.	8r	.	8r	.	.
16f'JJ	.	16F'JJ	.	.	.	.	.	.
!	!LO:DY:a	!	!LO:DY:a	!	!	!	!	!
8C'L	fp fp	8E'L	fp	8ggX'L	.	8bb-X'L	fp	V65/IV
8cX'J	.	8e'J	.	8gX'J	.	8bb-'J	.	.
16r	.	4r	.	4r	.	4r	.	.
32EE'LLL	.	.	.	.	.	.	.	.
32FF'J	.	.	.	.	.	.	.	.
16GG'	.	.	.	.	.	.	.	.
16EE'JJ	.	.	.	.	.	.	.	.
=49	=49	=49	=49	=49	=49	=49	=49	=49
(8.AAL	pp <	2r	pp	2r	pp	2r	pp	@none
16DJk)	.	.	.	.	.	.	.	.
(8.GGL	[ >	.	.	.	.	.	.	.
16CJk)	.	.	.	.	.	.	.	.
*clefC4	*	*	*	*	*	*	*	*
8r	]	8B'L	.	8fX'L	.	4r	.	V7
8B'L	.	8G'	.	8g'	.	.	.	.
8c'	.	8c'J	.	8e'J	.	16r	.	I
.	.	.	.	.	.	(32eeLLL	.	.
.	.	.	.	.	.	32ffJ)	.	.
8C'J	.	8r	.	8r	.	16gg'	.	.
.	.	.	.	.	.	16ee'JJ	.	.
=50	=50	=50	=50	=50	=50	=50	=50	=50
8r	pp	8.r	pp	8r	pp	(8.aaL	pp <	ii6
(4FF	<	.	.	(32BLLL	<	.	.	.
.	.	.	.	32AJJJ)	.	.	.	.
.	.	(32g#LLL	<	16r	[	16dddJk)	.	.
.	.	32aJJJ)	.	.	.	.	.	.
.	.	8.r	[	8r	.	(8.ggL	[ >	I6
8EE)	>	.	.	(32ALLL	<	.	.	.
.	.	.	.	32GJJJ)	.	.	.	.
.	.	(32f#LLL	<	16r	[	16cccJk)	.	.
.	.	32gXJJJ)	.	.	.	.	.	.
8FF'L	.	(48ALLL	[	8r	.	8r	]	IV
.	.	48G	.	.	.	.	.	.
.	.	48A	.	.	.	.	.	.
.	.	48G	.	.	.	.	.	.
.	.	48A	.	.	.	.	.	.
.	.	48GJJJ)	.	.	.	.	.	.
8GG'	]	(48ALLL	.	8dL	.	8r	.	V
.	.	48G	.	.	.	.	.	.
.	.	48A	.	.	.	.	.	.
.	.	48G	.	.	.	.	.	.
.	.	48F#	.	.	.	.	.	.
.	.	48GJJJ)	.	.	.	.	.	.
8EE'	.	(48dLLL	.	8G	.	16r	.	I6
.	.	48c	.	.	.	.	.	.
.	.	48d	.	.	.	.	.	.
.	.	48c	.	.	.	(32ccLLL	.	.
.	.	48d	.	.	.	.	.	.
.	.	.	.	.	.	32ddJ)	.	.
.	.	48cJJJ)	.	.	.	.	.	.
8GG'J	]]	(48dLLL	.	8eJ	.	16ee'	.	I64
.	.	48c	.	.	.	.	.	.
.	.	48d	.	.	.	.	.	.
.	.	48c	.	.	.	16cc'JJ	.	.
.	.	48B	.	.	.	.	.	.
.	.	48cJJJ)	.	.	.	.	.	.
=51	=51	=51	=51	=51	=51	=51	=51	=51
!LO:TX:b:i:t=sempre	!	!	!	!	!	!	!	!
8FF'L	pp	16dLL	pp	8r	pp	8dd'L	pp	ii6
.	.	(32DL	.	.	.	.	.	.
.	.	32EJJJ)	.	.	.	.	.	.
8BB'	.	16F'LL	.	8dL	.	8g'	.	V65
.	.	16D'JJ	.	.	.	.	.	.
8C'	.	8E'L	.	8GJ	.	8g'	.	I
8E'J	.	8c'J	.	8r	.	8gg'J	.	I6
!	!	!	!	!LO:TX:b:i:t=sempre	!	!LO:TX:b:i:t=sempre	!	!
16D'LL	.	4r	.	(48aLLL	.	8ff'L	.	ii
.	.	.	.	48g	.	.	.	.
.	.	.	.	48a	.	.	.	.
(32BBL	.	.	.	48g	.	.	.	.
.	.	.	.	48a	.	.	.	.
32CJ)	.	.	.	.	.	.	.	.
.	.	.	.	48gJJJ)	.	.	.	.
16D'	.	.	.	(48aLLL	.	8gg'	.	V6
.	.	.	.	48g	.	.	.	.
.	.	.	.	48a	.	.	.	.
16BB'JJ	.	.	.	48g	.	.	.	.
.	.	.	.	48f#	.	.	.	.
.	.	.	.	48gJJJ)	.	.	.	.
!	!	!LO:TX:b:i:t=sempre	!	!	!	!	!	!
8C'L	.	(48ALLL	.	16g'LL	.	8ee'	.	I
.	.	48G	.	.	.	.	.	.
.	.	48A	.	.	.	.	.	.
.	.	48G	.	(32ccL	.	.	.	.
.	.	48A	.	.	.	.	.	.
.	.	.	.	32ddJ)	.	.	.	.
.	.	48GJJJ)	.	.	.	.	.	.
8GG'J	.	(48ALLL	.	16ee'	.	8gg'J	.	I64
.	.	48G	.	.	.	.	.	.
.	.	48A	.	.	.	.	.	.
.	.	48G	.	16cc'JJ	.	.	.	.
.	.	48F#	.	.	.	.	.	.
.	.	48GJJJ)	.	.	.	.	.	.
=52	=52	=52	=52	=52	=52	=52	=52	=52
.	.	16qqG/	.	.	.	.	.	.
16D'LL	.	8g'L	.	8b'L	.	8ff'L	.	ii
(32dL	.	.	.	.	.	.	.	.
32eJ)	.	.	.	.	.	.	.	.
.	.	16qqG/	.	.	.	.	.	.
16f'	.	8g'J	.	16d'L	.	8bb'	.	V43
16d'JJ	.	.	.	16fX'JJ	.	.	.	.
.	.	16qqE/	.	.	.	.	.	.
8c'L	.	8e'L	.	16r	.	8ccc'	.	I
.	.	.	.	16e'	fp	.	.	.
[8GG#J [8E	fp	[8eJ [8b	fp	[8b [8ee	.	[8eeeJ	fp	V6/vi
4GG#_ 4E_	.	4e_ 4b_	.	8.bL] 8.ee]	.	16eeeLL]	.	.
.	.	.	.	.	.	16eee'	.	.
.	.	.	.	.	.	16bb'JJ	.	.
.	.	.	.	16ee'Jk	.	16r	.	.
8.GG#L] 8.E]	.	16eLL] 16b]	.	8b'	.	16r	.	.
.	.	16e'	.	.	.	16bb'LL	.	.
.	.	16B'	.	16r	.	16r	.	.
16E'Jk	.	16G#'JJ	.	16e 16b	.	(32ccc#L	.	.
.	.	.	.	.	.	32dddJJJ)	.	.
=53	=53	=53	=53	=53	=53	=53	=53	=53
!LO:TX:b:i:t=dim.	!LO:DY:a	!LO:TX:b:i:t=dim.	!	!LO:TX:b:i:t=dim.	!	!LO:TX:b:i:t=dim.	!	!
16EE'LL	pp pp	16g#'LL	.	16e'LL 16b	pp	16ddd'LL	pp	VI.V7
16F#'	.	16A'	.	16e' 16b	.	16d'	.	.
16E'	.	16G#'	.	16e' 16b	.	16d'	.	.
16G#'JJ	.	16B'JJ	.	16e'JJ 16b	.	(32dL	.	.
.	.	.	.	.	.	32eJJJ)	.	.
16A'LL	.	16a'LL	.	16e'LL 16cc#	.	8c#	.	I
16F#'	.	16e' 16cc#	.	16ee'	.	.	.	.
16E'	.	16e' 16cc#	.	16ee'	.	8r	.	.
16A#'JJ	.	16e'JJ 16cc#	.	(32eeL	.	.	.	.
.	.	.	.	32ff#JJJ)	.	.	.	.
16B'LL	.	16e'LL 16g#	.	16dd'LL	.	16r	.	V43
(32DDL	.	16G#'	.	16ee'	.	16bb'LL	.	.
32CC#J)	.	.	.	.	.	.	.	.
16DD'	.	16e'	.	16ee'	.	16bb'	.	.
16EE'JJ	.	16e'JJ 16g#	.	16ee'JJ	.	(32bbL	.	.
.	.	.	.	.	.	32ccc#JJJ)	.	.
16CC#'LL	.	16e'LL 16a	.	16ee'LL	.	16aa'LL	.	I6
16FF#'	.	16A'	.	16dd'	.	16ddd'	.	IV6
16EE'	.	16B'	.	16gg#'	.	16ddd'	.	V7
16GG#'JJ	.	16e'JJ	.	16bb'JJ	.	(32dddL	.	V65
.	.	.	.	.	.	32eeeJJJ)	.	.
=54	=54	=54	=54	=54	=54	=54	=54	=54
!LO:TX:b:i:t=cresc.	!	!LO:TX:b:i:t=cresc.	!	!LO:TX:b:i:t=cresc.	!	!LO:TX:b:i:t=cresc.	!	!
16AA'LL	.	16e'LL	.	16ee'LL	.	16ccc#'LL	.	I
16BB'	.	16d'	.	16g#'	.	16bb'	.	viio6
16C#'	.	16c#'	.	16a'	.	16aa'	.	I6
16D'JJ	.	16B'JJ	.	16fX'JJ	.	16gg#'JJ	.	viio43
16D'LL	.	16A#'LL	.	16e'LL	.	16ggX'LL	.	viio7(b4)/ii
16D#'	.	16AX'	.	16B'	.	16ff#'	.	V65/V
16E'	.	16A'	.	16c#'	.	16ee'	.	V(64)
16E'JJ	.	16B'JJ	.	16e'JJ	.	16g#'JJ	.	V
2r	.	2r	.	2r	.	2ffX^	.	V(+b9)
=55	=55	=55	=55	=55	=55	=55	=55	=55
8r	.	16e'LL	p	4r	.	(4ee	p	V
.	.	16cc#'	.	.	.	.	.	.
8e	p	16b'	.	.	.	.	.	.
.	.	16e'JJ	.	.	.	.	.	.
8r	.	16e'LL	.	(4b	p	8.gg#L	.	.
.	.	16cc#'	.	.	.	.	.	.
8e	.	16b'	.	.	.	.	.	.
.	.	16e'JJ	.	.	.	32ff#LL	.	.
.	.	.	.	.	.	32eeJJJ)	.	.
8r	.	16B'LL	.	8.dd#L	.	8ff#'L	.	V7/V
.	.	16cc#'	.	.	.	.	.	.
8B	.	16b'	.	.	.	8gg#'	.	.
.	.	16B'JJ	.	32cc#LL	.	.	.	.
.	.	.	.	32bJJJ)	.	.	.	.
8r	.	16BLL	.	8cc#'L	.	8aa'J	.	.
.	.	16cc#	.	.	.	.	.	.
8B	.	16b	.	8dd#'J	.	8r	.	.
.	.	16BJJ	.	.	.	.	.	.
=56	=56	=56	=56	=56	=56	=56	=56	=56
!LO:TX:b:i:t=poco	!	!LO:TX:b:i:t=poco	!	!LO:TX:b:i:t=poco	!	!LO:TX:b:i:t=poco	!	!
8r	.	16BLL	.	8ee'L	.	(4gg#	.	V
.	.	16cc#	.	.	.	.	.	.
!LO:TX:b:i:t=cresc.	!	!LO:TX:b:i:t=cresc.	!	!LO:TX:b:i:t=cresc.	!	!	!	!
16qqD#/	.	.	.	.	.	.	.	.
8E	.	16b	.	8ff#'J	.	.	.	.
.	.	16BJJ	.	.	.	.	.	.
!	!	!	!	!	!	!LO:TX:b:i:t=cresc.	!	!
8r	.	(4e	.	16gg#'LL	.	8.bbL	.	.
.	.	.	.	16ff#'	.	.	.	.
16qqd/	.	.	.	.	.	.	.	.
8e	.	.	.	16ee'	.	.	.	.
.	.	.	.	16e'JJ	.	32aaLL	.	.
.	.	.	.	.	.	32gg#JJJ)	.	.
8r	.	8.aL	.	16e'LL	.	(8.ccc#L	.	V(64)
.	.	.	.	16ff#'	.	.	.	.
16qqDD#/	.	.	.	.	.	.	.	.
8EE	.	.	.	16ee'	.	.	.	.
.	.	32g#LL	.	16e'JJ	.	32bbLL	.	.
.	.	32f#JJJ	.	.	.	32aaJJJ)	.	.
!	!	!LO:TX:b:i:t=dim.	!	!LO:TX:b:i:t=dim.	!	!LO:TX:a:i:t=dim.	!	!
8r	.	8.bL	.	16eLL	.	(8.dddXL	.	V7
.	.	.	.	16ff#	.	.	.	.
!LO:TX:b:i:t=dim.	!	!	!	!	!	!	!	!
16qqD#/	.	.	.	.	.	.	.	.
8E	.	.	.	16ee	.	.	.	.
.	.	32aLL	.	16eJJ	.	32ccc#LL	.	.
.	.	32g#JJJ)	.	.	.	32bbJJJ)	.	.
=57	=57	=57	=57	=57	=57	=57	=57	=57
!	!	!LO:TX:b:i:t=poco	!	!LO:TX:b:i:t=poco	!	!	!	!
(4AA	p	8a'L	p	16eLL	p	8ccc#'L	p	I
.	.	.	.	32r	.	.	.	.
.	.	.	.	32eeK	.	.	.	.
!	!	!	!	!	!	!LO:TX:b:i:t=poco	!	!
.	.	8b'J	.	16ee	.	8ddd'J	.	.
!	!	!	!	!LO:TX:b:i:t=cresc.	!	!	!	!
.	.	.	.	32r	.	.	.	.
.	.	.	.	32eeJJk	.	.	.	.
!LO:TX:b:i:t=cresc.	!	!	!	!	!	!	!	!
!LO:TX:b:i:t=poco	!	!LO:TX:b:i:t=cresc.	!	!	!	!LO:TX:b:i:t=cresc.	!	!
8.C#L	.	(8.eL	.	8a	.	16eeeLL	.	I6
.	.	.	.	.	.	32r	.	.
.	.	.	.	.	.	32eeeK	.	.
.	.	.	.	8r	.	16eee	.	.
32BBLL	.	32dXLL	.	.	.	32r	.	.
32AAJJJ)	.	32c#JJJ)	.	.	.	32eeeJJk	.	.
8BB'L	.	8d'L	.	16.r	.	8gg#	.	V43
.	.	.	.	32eeKLL	.	.	.	.
8C#'	.	8A'J	.	16ee	.	8r	.	I6
.	.	.	.	32r	.	.	.	.
.	.	.	.	32eeJJk	.	.	.	.
!LO:TX:b:i:t=dim.	!	!LO:TX:b:i:t=dim.	!	!LO:TX:b:i:t=dim.	!	!	!	!
8DX'J	.	8B'L	.	8g#'L	.	16.r	.	V2
!	!	!	!	!	!	!LO:TX:b:i:t=dim.	!	!
.	.	.	.	.	.	32eeeKLL	.	.
8r	.	8c#'J	.	8a'J	.	16eee	.	I6
.	.	.	.	.	.	32r	.	.
.	.	.	.	.	.	32eeeJJk	.	.
=	=	=	=	=	=	=	=	=
!	!LO:DY:a	!	!LO:DY:a	!	!	!	!	!
8D'L	pp	16dLL	pp	16aLL	.	8fffX	pp	vi.iv
.	.	32r	.	32r	.	.	.	.
.	.	32dK	.	32ffXK	.	.	.	.
8E'	.	16d	.	16ff	.	8r	.	.
.	.	32r	.	32r	.	.	.	.
.	.	32dJJk	.	32ffJJk	.	.	.	.
8F'J	.	8d'L	.	16ffLL	.	16.r	.	iv6
.	.	.	.	32r	.	.	.	.
.	.	.	.	32ddK	.	32fffKLL	.	.
8r	.	8e'J	.	16dd	.	16fff	.	.
.	.	.	.	32r	.	32r	.	.
.	.	.	.	32ddJJk	.	32fffJJk	.	.
=58	=58	=58	=58	=58	=58	=58	=58	=58
8F'L	pp	16fXLL	.	16ddLL	.	8fff	.	iv6
.	.	32r	.	32r	.	.	.	.
.	.	32dK	.	32ffK	.	.	.	.
8GX'J	.	16d	.	16ff	.	8r	.	V7/III
.	.	32r	.	32r	.	.	.	.
.	.	32dJJk	.	32ffJJk	.	.	.	.
16ALL	.	16dLL	.	16ffLL	.	16.r	.	iv64
32r	.	32r	.	32r	.	.	.	.
!LO:TX:b:i:t=cresc.	!	!LO:TX:b:i:t=cresc.	!	!LO:TX:b:i:t=cresc.	!	!LO:TX:b:i:t=cresc.	!	!
32AAJJk	.	32dK 32ccX	.	32ffK	.	32fffKLL	.	.
16ALL	.	16d 16cc	.	16ff	.	16fff	.	.
32r	.	32r	.	32r	.	32r	.	.
32AJJk	.	32dJJk 32cc	.	32eeJJk	.	32cccXJJk	.	i
=59	=59	=59	=59	=59	=59	=59	=59	=59
!LO:TX:b:i:t=poco	!	!LO:TX:b:i:t=poco	!LO:DY:a	!LO:TX:b:i:t=poco	!	!LO:TX:b:i:t=poco	!	!
8G'L	mf	8e'L	mf mf	8ee'L	.	16gggX'LL	mf	I.V(64)
.	.	.	.	.	.	16ee'	.	.
[8GJ	.	8e'J	.	8gX'J	.	16cc'	.	.
.	.	.	.	.	.	16ggX'JJ	.	.
!	!	!	!	!	!	!LO:TX:a:i:t=ten.	!	!
16GLL]	.	8.dL	.	8.bL	.	4ff	.	V
16AA'	.	.	.	.	.	.	.	.
16GG'	.	.	.	.	.	.	.	.
16BB'JJ	.	16GJk	.	16ddJk	.	.	.	.
8CX'L	.	8G'L	.	8cc'L	.	16ee'LL	.	I
.	.	.	.	.	.	16ccc'	.	.
[8GJ	.	8cX'J	.	8e'J	.	16gg'	.	.
.	.	.	.	.	.	16eee'JJ	.	.
!	!	!	!	!	!	!LO:TX:a:i:t=ten.	!	!
16GLL]	.	8.BL	.	4f	.	4ddd	.	V7
16AA'	.	.	.	.	.	.	.	.
16GG'	.	.	.	.	.	.	.	.
16BB'JJ	.	16GJk	.	.	.	.	.	.
=60	=60	=60	=60	=60	=60	=60	=60	=60
!LO:TX:b:i:t=poco	!LO:DY:a	!LO:TX:b:i:t=poco	!	!LO:TX:b:i:t=poco	!	!LO:TX:b:i:t=poco	!	!
16C'LL	mf mf	16G'LL	.	16e'LL	mf	8cccL	mf	I
16e'	.	16g'	.	16cc'	.	.	.	.
16c'	.	16e'	.	16cc'	.	[8ggJ	.	.
16g'JJ	.	16cc'JJ	.	16ee'JJ	.	.	.	.
4f'	.	4b	.	4dd	.	16ggLL]	.	V2
.	.	.	.	.	.	16aa'	.	.
.	.	.	.	.	.	16gg'	.	.
.	.	.	.	.	.	16bb'JJ	.	.
!	!LO:DY:a	!	!LO:DY:a	!	!	!	!	!
16e'LL	sf sf	16g'LL	sf	16cc'LL	.	16ccc'LL	sf	I6
*clefF4	*	*	*	*	*	*	*	*
16AA'	.	16c'J	.	16cc'J	.	16ccc'J	.	.
16GG'	.	8f'J	.	8g'J	.	8ddd'J	.	V7
16BB'JJ	.	.	.	.	.	.	.	.
16C'LL	.	16e'LL	.	16g'LL	.	16ccc'LL	.	I
16CC'J	.	16C'	.	16e'J	.	16aa'	.	vi6
8DD^J	.	16B'	.	8f^J	.	16gg'	.	V43
.	.	16G'JJ	.	.	.	16b'JJ	.	.
=61	=61	=61	=61	=61	=61	=61	=61	=61
!	!	!	!	!	!	!LO:TX:b:i:t=dolce	!	!
(8EEL	p	(4G	p	8r	p	(16ddKL	p	I6
.	.	.	.	.	.	8cc)	.	.
.	.	.	.	32qqa/LLL	.	.	.	.
.	.	.	.	32qqg/	.	.	.	.
!LO:TX:b:i:t=dolce	!	!	!	!	!	!	!	!
.	.	.	.	32qqf#/JJJ	.	.	.	.
16CL	.	.	.	16g'LL	.	.	.	.
16GJJ)	.	.	.	16c'JJ	.	16ccJk	.	.
!	!	!LO:TX:a:i:t=dolce	!	!	!	!	!	!
(8FFL	.	4F	.	8r	.	(16ddKL	.	IV
.	.	.	.	.	.	8cc)	.	.
.	.	.	.	32qqbb/LLL	.	.	.	.
.	.	.	.	32qqaa/	.	.	.	.
.	.	.	.	32qqgg#/JJJ	.	.	.	.
16CL	.	.	.	16aa'LL	.	.	.	.
16AJJ)	.	.	.	16a'JJ	.	16ccJk	.	.
(8EEL	.	4G)	.	8r	.	(16ddKL	.	I6
.	.	.	.	.	.	8cc)	.	.
.	.	.	.	32qqa/LLL	.	.	.	.
.	.	.	.	32qqg/	.	.	.	.
.	.	.	.	32qqf#/JJJ	.	.	.	.
16CL	.	.	.	16g'LL	.	.	.	.
16GJJ)	.	.	.	16c'JJ	.	16ccJk	.	.
(8DDL	.	4G 4f	.	8r	.	(8.ffL	.	V43
.	.	.	.	32qqa/LLL	.	.	.	.
.	.	.	.	32qqg/	.	.	.	.
.	.	.	.	32qqf#/JJJ	.	.	.	.
16GGL	.	.	.	16g'LL	.	.	.	.
16FJJ)	.	.	.	16G'JJ	.	32ddLL	.	.
.	.	.	.	.	.	32bJJJ)	.	.
=62	=62	=62	=62	=62	=62	=62	=62	=62
(8CCL	.	4G 4e	.	8r	.	(16ddLL	.	I
.	.	.	.	.	.	16cc	.	.
.	.	.	.	32qqdd/LLL	.	.	.	.
.	.	.	.	32qqcc/	.	.	.	.
.	.	.	.	32qqb/JJJ	.	.	.	.
16GGL	.	.	.	16cc'LL	.	16dd)	.	.
16CJJ)	.	.	.	16e'JJ	.	16ee'JJ	.	.
(8FFL	.	(4F	.	8r	.	16a'LL	.	IV
.	.	.	.	.	.	16a'	.	.
.	.	.	.	32qqb/LLL	.	.	.	.
.	.	.	.	32qqa/	.	.	.	.
.	.	.	.	32qqg#/JJJ	.	.	.	.
16AAL	.	.	.	16a'LL	.	16b'	.	.
16FJJ)	.	.	.	16A'JJ	.	16cc'JJ	.	.
(8GGL	.	4C	.	8r	.	16aLL	.	V(64)
.	.	.	.	.	.	16g	.	.
.	.	.	.	32qqd/LLL	.	.	.	.
.	.	.	.	32qqc/	.	.	.	.
.	.	.	.	32qqB/JJJ	.	.	.	.
16CL	.	.	.	16c'LL	.	16f'	.	.
16EJJ)	.	.	.	16G'JJ	.	16e'JJ	.	.
(8GGL	.	8BBL)	.	8r	.	4dT	.	V7
.	.	.	.	32qqcc/LLL	.	.	.	.
.	.	.	.	32qqb/	.	.	.	.
.	.	.	.	32qqa/JJJ	.	.	.	.
16DL	.	8fJ	.	16b'LL	.	.	.	.
16BJJ)	.	.	.	16d'JJ	.	.	.	.
=63	=63	=63	=63	=63	=63	=63	=63	=63
!LO:TX:b:i:t=cresc.	!	!LO:TX:b:i:t=cresc.	!	!	!	!	!	!
16c'LL	.	16e'LL	.	4r	.	8c	.	I\\
16e'	.	16g'	.	.	.	.	.	.
16c'	.	16e'	.	.	.	16r	.	I
!	!	!	!	!	!	!LO:TX:b:i:t=cresc.	!	!
16g'JJ	.	16cc'JJ	.	.	.	16ee'	.	.
!	!	!	!	!LO:TX:a:i:t=cresc.	!	!	!	!
4g	.	4b-X	.	16r	.	16cc'LL	.	V43/IV
.	.	.	.	16dd'LL	.	16gg'	.	.
.	.	.	.	16cc'	.	16ee'	.	.
.	.	.	.	16ee'JJ	.	16ccc'JJ	.	.
16f'LL	.	16a'LL	.	16ff'LL	.	16ccc'LL	.	IV-IV.I
16f'J	.	16a'J	.	16ff'J	.	16ddd'	.	.
8c'J	.	8b-'J	.	8gg^J	.	16ccc'	>	V7
.	.	.	.	.	.	16eee'JJ	.	.
16f	.	16a'LL	.	16ff'LL	.	16fff'LL	]	I
16DD'LL	.	16cc'J	.	16aa'J	.	16fff'J	.	.
16CC'	>	8cc^J	.	8bb-X^J	.	8ggg^J	.	V7
16EE'JJ	]]	.	.	.	.	.	.	.
=64	=64	=64	=64	=64	=64	=64	=64	=64
(8FFL	.	(16ccKL	.	8aaL	.	(4fff	.	I
.	.	8f)	.	.	.	.	.	.
.	.	.	.	32qqb-X/LLL	.	.	.	.
.	.	.	.	32qqa/	.	.	.	.
.	.	.	.	32qqg/JJJ	.	.	.	.
16CL	.	.	.	16a'L	.	.	.	.
16AJJ)	.	16fJk	.	16A'JJ	.	.	.	.
(8BB-XL	.	(16gKL	.	8r	.	4ddd)	.	IV
.	.	8f)	.	.	.	.	.	.
.	.	.	.	32qqgg/LLL	.	.	.	.
.	.	.	.	32qqff/	.	.	.	.
.	.	.	.	32qqee/JJJ	.	.	.	.
16FL	.	.	.	16ff'LL	.	.	.	.
16dJJ)	.	16fJk	.	16f'JJ	.	.	.	.
(8AAL	.	(16gKL	.	8r	.	32ccc'LLL	.	I6
.	.	.	.	.	.	32cc'	.	.
.	.	8f)	.	.	.	32dd'	.	.
.	.	.	.	.	.	32ee'	.	.
.	.	.	.	32qqdd/LLL	.	.	.	.
.	.	.	.	32qqcc/	.	.	.	.
.	.	.	.	32qqb/JJJ	.	.	.	.
16FL	.	.	.	16cc'LL	.	32ff'	.	.
.	.	.	.	.	.	32gg'	.	.
16cJJ)	.	16fJk	.	16f'JJ	.	32aa'	.	.
.	.	.	.	.	.	32bb-X'JJJ	.	.
(8GGL	.	(8.b-XL	.	8r	.	32ccc'LLL	.	V43
.	.	.	.	.	.	32ddd'	.	.
.	.	.	.	.	.	32eee'	.	.
.	.	.	.	.	.	32fff'J	.	.
.	.	.	.	32qqdd/LLL	.	.	.	.
.	.	.	.	32qqcc/	.	.	.	.
.	.	.	.	32qqb/JJJ	.	.	.	.
16CL	.	.	.	16cc'LL	.	16ggg'	.	.
16B-XJJ)	.	32gLL	.	16c'JJ	.	16bb-'JJ	.	.
.	.	32eJJJ)	.	.	.	.	.	.
=65	=65	=65	=65	=65	=65	=65	=65	=65
(8FFL	.	8fL	.	(4cc	.	(16bb-XLL	.	I
.	.	.	.	.	.	16aa	.	.
.	.	32qqg/LLL	.	.	.	.	.	.
.	.	32qqf/	.	.	.	.	.	.
.	.	32qqe/JJJ	.	.	.	.	.	.
16CL	.	16f'L	.	.	.	16bb-)	.	.
16AJJ)	.	16A'JJ	.	.	.	16ccc'JJ	.	.
(8BB-XL	.	8r	.	[4f)	.	16ddd'LL	.	IV
.	.	.	.	.	.	16ddd'	.	.
.	.	32qqe/LLL	.	.	.	.	.	.
.	.	32qqd/	.	.	.	.	.	.
.	.	32qqc#/JJJ	.	.	.	.	.	.
16DL	.	16d'LL	.	.	.	16eee'	.	.
16B-XJJ)	.	16F'JJ	.	.	.	16fff'JJ	.	.
(8CL	.	8r	.	4f]	.	(16dddLL	.	V(64)
.	.	.	.	.	.	16ccc)	.	.
.	.	32qqd/LLL	.	.	.	.	.	.
.	.	32qqcX/	.	.	.	.	.	.
.	.	32qqB/JJJ	.	.	.	.	.	.
16FL	.	16c'LL	.	.	.	16bb-'	.	.
16AJJ)	.	16C'JJ	.	.	.	16aa'JJ	.	.
8C;	.	8c;	.	8e;	.	4ggT;	.	V\\
8r;	.	8r;	.	8r;	.	.	.	.
=66	=66	=66	=66	=66	=66	=66	=66	=66
3...ryy	.	3...ryy	.	3...ryy	.	32ff#LLL	.	@none
.	.	.	.	.	.	32ggJJJ	.	.
!	!	!	!	!	!	!LO:TX:b:i:t=non troppo presto	!	!
.	.	.	.	.	.	(32GLLL	.	.
.	.	.	.	.	.	32A	.	.
.	.	.	.	.	.	32B-X	.	.
.	.	.	.	.	.	32c	.	.
.	.	.	.	.	.	32d	.	.
.	.	.	.	.	.	32e	.	.
.	.	.	.	.	.	32fX	.	.
.	.	.	.	.	.	32g	.	.
.	.	.	.	.	.	32a	.	.
.	.	.	.	.	.	32b-X	.	.
.	.	.	.	.	.	32cc	.	.
.	.	.	.	.	.	32dd	.	.
.	.	.	.	.	.	32ee	.	.
.	.	.	.	.	.	32ffX	.	.
.	.	.	.	.	.	32gg	.	.
.	.	.	.	.	.	32aa	.	.
.	.	.	.	.	.	32bb-X	.	.
.	.	.	.	.	.	32cccJJJ)	.	.
=67	=67	=67	=67	=67	=67	=67	=67	=67
!	!	!	!	!	!	!LO:TX:a:B:t=Tempo I.	!	!
4r	p	2r	.	16B-X'LL	<	(8.dddL	<	IV
.	.	.	.	16g'	.	.	.	.
.	.	.	.	16f'	[ >	.	.	.
.	.	.	.	16B-'JJ	.	32cccLL	.	.
.	.	.	.	.	.	32bb-XJJJ)	[ >	.
16r	.	.	.	16A'LL	]	8ccc'L	.	I
16F'LL	.	.	.	16f'	.	.	.	.
16C'	.	.	.	16c'	.	8ff'J	.	.
16AA'JJ	.	.	.	16A'JJ	.	.	.	.
16BB-X'LL	<	(8D	<	(8.ddL	<	(8d	] <	IV
16G'	.	.	.	.	.	.	.	.
16E'	.	4E	>	.	.	4e	>	vi
16GG'JJ	.	.	.	32ccLL	.	.	.	.
.	.	.	.	32b-XJJJ)	.	.	.	.
16AA'LL	[ >	.	.	8cc'L	[ >	.	.	.
16F'	.	.	.	.	.	.	.	.
16C'	.	8F)	] ]]	8f'J	]]	8f)	] ]]	I6
16AA'JJ	]]	.	.	.	.	.	.	.
=68	=68	=68	=68	=68	=68	=68	=68	=68
!LO:TX:a:B:t=pizz.	!	!	!	!	!	!	!	!
16GG'LL	p <	4B-X	p <	(8d	p <	(8.dddL	p <	ii
16F'	.	.	.	.	.	.	.	.
16E'	.	.	.	4e	[	.	.	.
16GG'JJ	.	.	.	.	.	32cccLL	.	V43
.	.	.	.	.	.	32bb-XJJJ)	.	.
16AA'LL	[	8AL	[	.	.	8ccc'L	[	vi
16G'	.	.	.	.	.	.	.	.
16F'	.	8A'J	.	[8f)	.	8fff'J	.	I
16AA'JJ	.	.	.	.	.	.	.	.
16BB-X'LL	.	8G'L	.	8fL]	.	8gg'L	.	ii65
16B-X'	.	.	.	.	.	.	.	.
16DD'	.	8G'J	.	8e'J	.	8ccc'J	.	V
16CC'JJ	.	.	.	.	.	.	.	.
8FF'	.	8A'	.	8f'	.	8ff'	.	I\\
8B-	.	8r	.	8r	.	8r	.	IV
=69	=69	=69	=69	=69	=69	=69	=69	=69
!	!	!LO:TX:a:B:t=pizz.	!	!LO:TX:a:B:t=pizz.	!	!	!	!
8EL	.	8r	.	4r	.	2r	.	ii
8A	.	8c#L	.	.	.	.	.	.
8D	.	8fXJ	.	8r	.	.	.	.
8GJ	.	8r	.	8b-X	.	.	.	.
8C#L	.	8r	.	8eL	.	8r	.	V6/vi
8F#	.	8AL	.	8a	.	8a'L	.	V6/ii
8CX	.	8f#J	.	8d#	.	8dd#'	.	iii.#viio2
8F#J	.	8F#	.	8aJ	.	8aa'J	.	.
=70	=70	=70	=70	=70	=70	=70	=70	=70
!	!	!	!	!	!	!LO:TX:b:i:t=sempre	!	!
!LO:TX:b:i:t=sempre	!	!LO:TX:b:i:t=sempre	!	!LO:TX:b:i:t=sempre	!	!LO:TX:b:B:t=arco	!	!
8BBL	pp	8F#	pp	24r	pp	8dd#'L	pp	V7
.	.	.	.	24d#'LL	.	.	.	.
.	.	.	.	24a'JJ	.	.	.	.
8F#J	.	24r	.	24dd#'LL	.	8aa'J	.	.
.	.	24d#'LL	.	24d#'JJ	.	.	.	.
.	.	24A'JJ	.	24r	.	.	.	.
8BBL	.	8G#	.	24r	.	8ddX'L	.	V43/iv
.	.	.	.	24dX'LL	.	.	.	.
.	.	.	.	24g#'JJ	.	.	.	.
8EJ	.	24r	.	24ddX'LL	.	8gg#'J	.	.
.	.	24dX'LL	.	24d'JJ	.	.	.	.
.	.	24G#'JJ	.	24r	.	.	.	.
8AA#L	.	8GX	.	24r	.	8cc#'L	.	#viio7/V
.	.	.	.	24c#LL	.	.	.	.
.	.	.	.	24gXJJ	.	.	.	.
8EJ	.	24r	.	24cc#LL	.	8ggX'J	.	.
.	.	24c#LL	.	24c#JJ	.	.	.	.
.	.	24GJJ	.	24r	.	.	.	.
8AAXL	.	8F#	.	24r	.	8ccX'L	.	#viio43
.	.	.	.	24B#XLL	.	.	.	.
.	.	.	.	24f#JJ	.	.	.	.
8D#J	.	24r	.	24b#XLL	.	8ff#'J	.	.
.	.	24B#XLL	.	24B#JJ	.	.	.	.
.	.	24F#JJ	.	24r	.	.	.	.
=71	=71	=71	=71	=71	=71	=71	=71	=71
8AAL	.	8D# 8F#	.	24r	.	(8.ff#L	.	#i.#viio2
.	.	.	.	24B#XLL	.	.	.	.
.	.	.	.	24f#JJ	.	.	.	.
8D#J	.	24r	.	24b#XLL	.	.	.	.
.	.	24cLL	.	24B#JJ	.	.	.	.
.	.	.	.	.	.	32eeLL	.	.
.	.	24F#JJ	.	24r	.	.	.	.
.	.	.	.	.	.	32dd#JJJ)	.	.
8AAL	.	8r	.	24r	.	(8.ff#L	.	.
.	.	.	.	24B#LL	.	.	.	.
.	.	.	.	24f#JJ	.	.	.	.
8D#J	.	24r	.	24b#LL	.	.	.	.
.	.	24cLL	.	24B#JJ	.	.	.	.
.	.	.	.	.	.	32eeLL	.	.
.	.	24F#JJ	.	24r	.	.	.	.
.	.	.	.	.	.	32dd#JJJ)	.	.
8FF#L	<	8r	<	24r	<	(8.aaL	<	#viio43
.	.	.	.	24B#LL	.	.	.	.
.	.	.	.	24aJJ	.	.	.	.
8D#J	.	24r	.	24b#LL	.	.	.	.
.	.	24cLL	.	24B#JJ	.	.	.	.
.	.	.	.	.	.	32gg#LL	.	.
.	.	24F#JJ	.	24r	.	.	.	.
.	.	.	.	.	.	32ff#JJJ)	.	.
8FF#L	.	8r	.	24r	.	(8.aaL	.	.
.	.	.	.	24B#LL	.	.	.	.
.	.	.	.	24aJJ	.	.	.	.
8D#J	[[	24r	.	24b#LL	.	.	.	.
.	.	24cLL	.	24B#JJ	.	.	.	.
.	.	.	.	.	.	32gg#LL	.	.
.	.	24F#JJ	[[	24r	[[	.	.	.
.	.	.	.	.	.	32ff#JJJ)	[[	.
=72	=72	=72	=72	=72	=72	=72	=72	=72
(2FF#	>	(4d#	>	(4b#X	>	(2aa	>	.
.	.	[4D#)	.	[4B#X)	.	.	.	.
8GG#)	] p	8D#L]	] p	8B#L]	] p	8gg#)	] p	V
8r	.	(8B#XJ	.	(8d#J	.	8r	.	.
(8.G#L	.	8.d#L	.	8.f#L	.	(8.b#XL	.	V7
16AJk)	.	32c#LL	.	32e#XLL	.	32cc#LL	.	VI+
.	.	32B#JJJ)	.	32d#JJJ)	.	32dd#JJJ)	.	.
=73	=73	=73	=73	=73	=73	=73	=73	=73
(2FF#	p >	(4d#	p >	(4ccX	p >	(2aa	p >	I.viio7/V
.	.	4D#)	.	4cX)	.	.	.	.
8GGX)	]	8DXL	]	8BL	]	4ggX)	]	V
8r	.	(8dXJ	.	(8bJ	.	.	.	.
(8.GXL	.	8.fXL	.	8.ddXL	.	(8.bL	.	.
16AJk)	.	32eLL	.	32ccXLL	.	32ccXLL	.	vi
.	.	32dJJJ)	.	32bJJJ)	.	32ddXJJJ)	.	.
=74	=74	=74	=74	=74	=74	=74	=74	=74
(2FF	>	(4b	>	(4ddX	>	(2aa	>	V2(9)
.	.	[4B)	.	[4dX)	.	.	.	.
!	!	!	!	!	!LO:DY:a	!	!	!
8EE)	] p	8BL]	] p	8dL]	] p p	8gg#)	]	V7/vi
*clefC4	*	*	*	*	*	*	*	*
8e	.	(8bJ	.	(8ddJ	.	4gg#	.	.
8r	.	8.ddXL	.	8.ffXL	.	.	.	.
!LO:TX:b:i:t=più	!	!	!	!	!	!LO:TX:b:i:t=più	!	!
8e	.	.	.	.	.	8gg#	.	.
!	!	!LO:TX:b:i:t=più	!	!LO:TX:b:i:t=più	!	!	!	!
.	.	32ccXLL	.	32eeLL	.	.	.	.
.	.	32bJJJ)	.	32ddJJJ)	.	.	.	.
=75	=75	=75	=75	=75	=75	=75	=75	=75
16r	.	(4e	.	(8dd	.	(4ggX	.	V7/ii
16e'LL	.	.	.	.	.	.	.	.
16A'JJ	.	.	.	4cc#)	.	.	.	.
16r	.	.	.	.	.	.	.	.
8r	.	8.gL	.	.	.	8.bb-XL	.	.
8A'	.	.	.	8cc#	.	.	.	.
.	.	32f#LL	.	.	.	32aaLL	.	.
.	.	32eJJJ)	.	.	.	32ggJJJ)	.	.
16r	.	(4a	.	(4ccX	.	(8gg	.	V7/V
16A'LL	.	.	.	.	.	.	.	.
16d'JJ	.	.	.	.	.	4ff#)	.	.
16r	.	.	.	.	.	.	.	.
8r	.	8.ccL	.	8.ee-XL	.	.	.	.
8d'	.	.	.	.	.	8ff#	.	.
.	.	32bLL	.	32ddLL	.	.	.	.
.	.	32aJJJ)	.	32ccJJJ)	.	.	.	.
=76	=76	=76	=76	=76	=76	=76	=76	=76
16r	pp	(4d	pp	(8cc	pp	(4ffX	pp	V7
16d'LL	.	.	.	.	.	.	.	.
16G'JJ	.	.	.	4b)	.	.	.	.
16r	.	.	.	.	.	.	.	.
8r	.	8.fXL	.	.	.	8.aaL	.	.
8G'	.	.	.	8b	.	.	.	.
.	.	32eLL	.	.	.	32ggLL	.	.
.	.	32dJJJ)	.	.	.	32ffJJJ)	.	.
16r	.	(4g	.	(4b-X	.	(8ff	.	V7/IV
16G'LL	.	.	.	.	.	.	.	.
16c'JJ	.	.	.	.	.	4ee)	.	.
16r	.	.	.	.	.	.	.	.
8r	.	8.b-XL	.	8.ddL	.	.	.	.
8c'	.	.	.	.	.	8ee	.	.
.	.	32aLL	.	32ccLL	.	.	.	.
.	.	32gJJJ)	.	32a#JJJ)	.	.	.	.
=77	=77	=77	=77	=77	=77	=77	=77	=77
16r	.	(8gL	.	(8b-XL	.	(8ee	.	iiio6
16C'LL	.	.	.	.	.	.	.	.
16c'JJ	.	8fJ	.	8aJ	.	4ff)	.	I(64)
16r	.	.	.	.	.	.	.	.
8r	.	8.aL	.	8.ccL	.	.	.	.
8c'	.	.	.	.	.	8ff	.	.
.	.	32gLL	.	32b-LL	.	.	.	.
.	.	32fJJJ)	.	32aJJJ)	.	.	.	.
16r	.	(8fL	.	(8a	.	(8ff	.	.
16C'LL	.	.	.	.	.	.	.	.
!	!	!	!	!LO:TX:b:i:t=cresc.	!	!LO:TX:b:i:t=cresc.	!	!
16c'JJ	.	8eJ)	.	4g)	.	4gg)	.	I6
16r	.	.	.	.	.	.	.	.
*clefF4	*	*	*	*	*	*	*	*
!LO:TX:b:i:t=cresc.	!	!LO:TX:b:i:t=cresc.	!	!	!	!	!	!
(8.EEL	.	(8.GL	.	.	.	.	.	.
.	.	.	.	8g	.	8gg	.	.
32DDLL	.	32FLL	.	.	.	.	.	.
32CCJJJ)	mf	32EJJJ)	.	.	.	.	.	.
=78	=78	=78	=78	=78	=78	=78	=78	=78
8BBB'L	.	8d'L	mf	8f'L	mf	16gg'LL	mf	V65
.	.	.	.	.	.	16ddd'	.	.
[8GJ	.	8B'J	.	8d'J	.	16gg'	.	V7
.	.	.	.	.	.	16fff'JJ	.	.
16GLL]	>	16c'LL	>	16e'LL	>	[4eee	>	V(64)
16c'	.	16e'	.	16g'	.	.	.	.
16G'	.	16c'	.	16e'	.	.	.	.
16e'JJ	.	16g'JJ	.	16cc'JJ	.	.	.	.
[4f	]	[4g	]	[4dd	]	16eeeLL]	]	V2
.	.	.	.	.	.	16bb'	.	.
.	.	.	.	.	.	16gg'	.	.
.	.	.	.	.	.	16ddd'JJ	.	.
16fLL]	>	16gLL]	>	16ddLL]	>	[4ccc	>]	I6
16e'	.	16g'	.	16cc'	.	.	.	.
16CC'	.	16E'	.	16cc'	.	.	.	.
16EE'JJ	]]	16G'JJ	]]	16b'JJ	]]	.	.	.
=79	=79	=79	=79	=79	=79	=79	=79	=79
8FF'L	p	8A'L	p	8a'L	p	16cccLL]	p	IV
.	.	.	.	.	.	16ccc'	.	.
8AA'	.	8c'	.	8f'	.	16bb'	.	IV6
.	.	.	.	.	.	16aa'JJ	.	.
8BB'	.	8G'	.	8d'	.	16aaLL	.	V6
.	.	.	.	.	.	16gg	.	.
8C'J	.	8G'J	.	8c'J	.	16ff'	.	I
.	.	.	.	.	.	16ee'JJ	.	.
8F'L	.	8A'L	.	8d'L	.	(16dd'LL	.	ii6
.	.	.	.	.	.	16b-X'	.	VI64/ii
8E'	.	8A'J	.	8g'	.	16a'	.	V43/ii
.	.	.	.	.	.	16cc#'JJ)	.	.
8D'	.	8a'L	.	8f'	.	(16ddLL	.	ii
.	.	.	.	.	.	16ee)	.	.
8G'J	.	8d'J	.	8f'J	.	16ff'	.	V7
.	.	.	.	.	.	16b'JJ	.	.
=80	=80	=80	=80	=80	=80	=80	=80	=80
!	!	!LO:TX:b:i:t=cresc.	!	!LO:TX:b:i:t=cresc.	!	!LO:TX:b:i:t=cresc.	!	!
4r	.	16E'LL	.	16e'LL	.	[4gg	.	I6
.	.	16e'	.	16g'	.	.	.	.
.	.	16c'	.	16e'	.	.	.	.
.	.	16e'JJ	.	16cc'JJ	.	.	.	.
16r	.	8.BL	.	8.ddL	.	16ggLL]	.	V7
!LO:TX:b:i:t=cresc.	!	!	!	!	!	!	!	!
16BB'LL	.	.	.	.	.	16ddd'	.	.
16GG'	.	.	.	.	.	16gg'	.	.
16D'JJ	.	16GJk	.	16b'Jk	.	16fff'JJ	.	.
4C	.	16G'LL	.	16cc'LL	.	16eee'LL	.	I
.	.	16a'	.	16ee'J	.	16cccX'J	.	.
.	.	16g'	.	8ff'J	.	8ddd'J	.	V7
.	.	16b'JJ	.	.	.	.	.	.
16r	.	16cc'LL	.	16ee'LL	.	16ccc'LL	.	I
16AA'LL	.	16e'J	.	16cc'J	.	16ccc'J	.	vi
16GG'	>	8f'J	.	8b'J	.	8ddd'J	.	V7
16GG#'JJ	]]	.	.	.	.	.	.	.
=81	=81	=81	=81	=81	=81	=81	=81	=81
8AA	pp	8e	pp	16cc#	pp	8ccc#	pp	V/ii
.	.	.	.	16c#'KL	.	.	.	.
8r	.	8r	.	8.dJ	.	8r	.	.
4r	.	4r	.	.	.	4r	.	.
.	.	.	.	16c#'KL	.	.	.	.
.	.	.	.	8.dJ	.	.	.	.
2r	.	2r	.	.	.	2r	.	.
.	.	.	.	16c#'KL	.	.	.	.
.	.	.	.	8.dJ	.	.	.	.
.	.	.	.	16c#'KL	.	.	.	.
.	.	.	.	8dJ	.	.	.	.
=82	=82	=82	=82	=82	=82	=82	=82	=82
!	!	!LO:TX:b:i:t=sempre	!	!	!	!LO:TX:b:i:t=sempre	!	!
2r	.	8c#'L	pp	8.r	pp	16r	pp	V/ii
.	.	.	.	.	.	16a'KL	.	.
.	.	8d'	.	.	.	[8f'J	.	ii
!	!	!	!	!LO:TX:b:i:t=sempre	!	!	!	!
.	.	.	.	16f'	.	.	.	.
.	.	8B'	.	8d'	.	16f]	.	V6
.	.	.	.	.	.	16g'KL	.	.
.	.	8cX'J	.	16r	.	[8eJ	.	I
.	.	.	.	16e'	.	.	.	.
4r	.	8A'L	.	8cX'	.	16e]	.	IV6
.	.	.	.	.	.	16f'LL	.	.
.	.	8B'	.	16r	.	16d'	.	viio
.	.	.	.	16d'	.	16f'JJ	.	.
8r	.	8c'	.	(16eLL	.	[16e^	.	I
.	.	.	.	[16B-XJJ)	.	16e]	.	V2/IV
[8C#	>]	8c#'J	>]	(16B-LL]	>	8r	.	V6/ii
.	.	.	.	16AJJ)	]]	.	.	.
=83	=83	=83	=83	=83	=83	=83	=83	=83
16C#]	pp	16r	pp	4r	pp	8r	pp	V6/ii
16C#'KL	.	16A'KL	.	.	.	.	.	.
8.DJ	.	8.FJ	.	.	.	16r	.	ii
.	.	.	.	.	.	16b-X'	.	VI6/ii
.	.	.	.	16r	.	[8aL	.	V6/ii
16C#'KL	.	16A'KL	.	16a'KL	.	.	.	.
8.DJ	.	8.FJ	.	8f'J	.	16aL]	.	ii
.	.	.	.	.	.	16b-'JJ	.	VI6/ii
.	.	.	.	4r	.	[8aL	.	V6/ii
16C#'KL	.	16A'KL	.	.	.	.	.	.
8.DJ	.	8.FJ	.	.	.	16aL]	.	ii
.	.	.	.	.	.	16b-'JJ	.	VI6/ii
.	.	.	.	16r	.	[8aL	.	V6/ii
16C#'KL	.	16A'KL	.	16a'KL	.	.	.	.
8DJ	.	8FJ	.	8f'J	.	16aL]	.	ii
.	.	.	.	.	.	16b-'JJ	.	IV6
=84	=84	=84	=84	=84	=84	=84	=84	=84
8C#'L	.	16ELL	.	16r	.	8a	.	V6/ii
.	.	16eJJ	.	16a'KL	.	.	.	.
8D'	.	16r	.	8.fJ	.	16r	.	ii
.	.	16d	.	.	.	16ff'	.	.
8BB'	.	16r	.	.	.	8dd'	.	V6
.	.	16d	.	16g'KL	.	.	.	.
8CX'J	.	16r	.	8.eJ	.	16r	.	I
.	.	16cX	.	.	.	16ee'	.	.
8AA'L	.	16r	.	.	.	8cc'	.	IV6
.	.	16c	.	16f'LL	.	.	.	.
8BB'	.	16r	.	16d'	.	16r	.	V65
.	.	16G	.	16f'JJ	.	16dd'	.	.
8C'	.	16r	.	16r	.	8ee'	.	I
.	.	16G'LL	.	16e'LL	.	.	.	.
8BB-X'J	.	16G'	.	16c'	.	16r	.	V2/IV
.	.	16c'JJ	.	16e'JJ	.	16ccc'	.	.
=85	=85	=85	=85	=85	=85	=85	=85	=85
!LO:TX:b:i:t=cresc.	!	!LO:TX:b:i:t=cresc.	!	!LO:TX:b:i:t=cresc.	!	!LO:TX:b:i:t=cresc.	!	!
16AALL	.	8c'L	.	8f'L	.	(16dddLL	.	IV6
16AA'J	.	.	.	.	.	16ccc)	.	.
8.FFJ	.	8c'	.	8a'	.	(16bb'	.	IV
.	.	.	.	.	.	16aa'JJ)	.	.
.	.	8B'	.	8d'	.	(16aaLL	.	V
16GG'KL	.	.	.	.	.	16gg)	.	.
8.CC#J	.	8B-X'J	.	8e'J	.	(16ff'	.	#viio7/ii
.	.	.	.	.	.	16ee'JJ)	.	.
!	!	!LO:TX:b:i:t=dim.	!	!LO:TX:b:i:t=dim.	!	!LO:TX:b:i:t=dim.	!	!
.	.	8AL	.	(16gLL	.	(16eeLL	.	ii6
!LO:TX:b:i:t=dim.	!	!	!	!	!	!	!	!
16FF'KL	.	.	.	16f)	.	16dd)	.	.
8EEJ	.	8GJ	.	16g'	.	(16dd'	.	#viio65/ii
.	.	.	.	16g'JJ	.	16cc#'JJ)	.	.
(16FFLL	.	(16FLL	.	(16aLL	.	(16ddLL	.	ii6
16EE)	.	16G)	.	16g)	.	16ee	.	I6
16DD	.	16G'	.	16g'	.	16ff)	.	V43
16GG'JJ	.	16G'JJ	.	16f'JJ	.	16bJJ	.	V7
=86	=86	=86	=86	=86	=86	=86	=86	=86
(8CCXL	p	(4G	p	(8e	p	(16ddKL	p	I
!	!	!	!	!	!	!LO:TX:b:i:t=dolce	!	!
.	.	.	.	.	.	8ccX)	.	.
!LO:TX:b:i:t=dolce	!	!	!	!LO:TX:b:i:t=dolce	!	!	!	!
16CL	.	.	.	4c)	.	.	.	.
16EJJ)	.	.	.	.	.	16ccJk	.	.
!	!	!LO:TX:b:i:t=dolce	!	!	!	!	!	!
(8FFL	.	4A	.	.	.	(16ddKL	.	IV
.	.	.	.	.	.	8cc)	.	.
16CL	.	.	.	[8c	.	.	.	.
16AJJ)	.	.	.	.	.	16ccJk	.	.
(8EEL	.	4G)	.	32cLLL]	.	(16ddKL	.	I6
.	.	.	.	32g'	.	.	.	.
.	.	.	.	32a'	.	8cc)	.	.
.	.	.	.	32b'	.	.	.	.
16CL	.	.	.	32cc'	.	.	.	.
.	.	.	.	32dd'	.	.	.	.
16GJJ)	.	.	.	32ee'	.	16ccJk	.	.
.	.	.	.	32ff'JJJ	.	.	.	.
(8DDL	.	4BB 4G	.	32gg'LLL	.	(8.ffL	.	V43
.	.	.	.	32aa'	.	.	.	.
.	.	.	.	32bb'	.	.	.	.
.	.	.	.	32ccc'J	.	.	.	.
16GGL	.	.	.	16ddd'	.	.	.	.
16FJJ)	.	.	.	16ff'JJ	.	32ddLL	.	.
.	.	.	.	.	.	32bJJJ)	.	.
=87	=87	=87	=87	=87	=87	=87	=87	=87
!LO:TX:b:i:t=più	!LO:DY:a	!LO:TX:b:i:t=più	!LO:DY:a	!LO:TX:b:i:t=più	!	!LO:TX:b:i:t=più	!	!
(8CCL	p p	32C'LLL 32G	p	8eeL	.	(16ddKL	p	I[I
.	.	32C'	.	.	.	.	.	.
.	.	32D'	.	.	.	8cc)	.	.
.	.	32E'	.	.	.	.	.	.
.	.	.	.	32qqa/LLL	.	.	.	.
.	.	.	.	32qqg/	.	.	.	.
.	.	.	.	32qqf#/JJJ	.	.	.	.
16GGL	.	32F'	.	16g'L	.	.	.	.
.	.	32G'	.	.	.	.	.	.
16EJJ)	.	32A'	.	16c'JJ	.	16ccJk	.	.
.	.	32B'JJJ	.	.	.	.	.	.
(8CCL	.	32c'LLL	.	8r	.	(16ccKL	.	V7/IV
.	.	32d'	.	.	.	.	.	.
.	.	32e'	.	.	.	8b-X)	.	.
.	.	32f'J	.	.	.	.	.	.
.	.	.	.	32qqfX/LLL	.	.	.	.
.	.	.	.	32qqe/	.	.	.	.
.	.	.	.	32qqd/JJJ	.	.	.	.
16GGL	.	16g'	.	16e'LL	.	.	.	.
16EJJ)	.	16B-X'JJ	.	16G'JJ	.	16b-Jk	.	.
32CC'LLL	.	(4F	.	8r	.	(16b-KL	.	IV
32CC'	.	.	.	.	.	.	.	.
32DD'	.	.	.	.	.	8a)	.	.
32EE'	.	.	.	.	.	.	.	.
.	.	.	.	32qqdd/LLL	.	.	.	.
.	.	.	.	32qqcc/	.	.	.	.
.	.	.	.	32qqb/JJJ	.	.	.	.
32FF'	.	.	.	16ccLL	.	.	.	.
32GG'	.	.	.	.	.	.	.	.
32AA'	.	.	.	16fJJ	.	16aJk	.	.
32BB'JJJ	.	.	.	.	.	.	.	.
32C'LLL	.	4E)	.	8r	.	(16aKL	.	I6]
32D'	.	.	.	.	.	.	.	.
32E'	.	.	.	.	.	8g)	.	.
32F'J	.	.	.	.	.	.	.	.
.	.	.	.	32qqdd/LLL	.	.	.	.
.	.	.	.	32qqcc/	.	.	.	.
.	.	.	.	32qqb/JJJ	.	.	.	.
16G'	.	.	.	16ccLL	.	.	.	.
16C'JJ	.	.	.	16eJJ	.	16gJk	.	.
=88	=88	=88	=88	=88	=88	=88	=88	=88
32BB-XLLL	pp	32ELLL	pp	32ccLLL	pp	[4g	pp	V2/IV
32BB-	.	32E	.	32c	.	.	.	.
32BB-	.	32E	.	32c	.	.	.	.
32BB-	.	32E	.	32c	.	.	.	.
32BB-	.	32E	.	32c	.	.	.	.
32BB-	.	32E	.	32c	.	.	.	.
32BB-	.	32E	.	32c	.	.	.	.
32BB-JJJ	.	32EJJJ	.	32cJJJ	.	.	.	.
32BB-LLL	.	32ELLL	.	32cLLL	.	32gLLL]	.	.
32BB-	.	32E	.	32c	.	32g'	.	.
32BB-	.	32E	.	32c	.	32a'	.	.
32BB-	.	32E	.	32c	.	32b-X'	.	.
32BB-	.	32E	.	32c	.	32cc'	.	.
32BB-	.	32E	.	32c	.	32dd'	.	.
32BB-	.	32E	.	32c	.	32ee'	.	.
32BB-JJJ	.	32EJJJ	.	32cJJJ	.	32ff'JJJ	.	.
32BB-LLL	.	32ELLL	.	32cLLL	.	32gg'LLL	.	.
32EE	.	32G	.	32c	.	32gg'	.	V65/IV
32EE	.	32G	.	32c	.	32aa'	.	.
32EE	.	32G	.	32c	.	32bb-X'	.	.
32EE	.	32G	.	32c	.	32ccc'	.	.
32EE	.	32G	.	32c	.	32ddd'	.	.
32EE	.	32G	.	32c	.	32eee'	.	.
32EEJJJ	.	32GJJJ	.	32cJJJ	.	32fff'JJJ	.	.
!	!	!LO:TX:b:i:t=cresc.	!	!LO:TX:b:i:t=cresc.	!	!LO:TX:b:i:t=cresc.	!	!
32EELLL	.	32GLLL	.	32cLLL	.	8ggg'L	.	.
!LO:TX:b:i:t=cresc.	!	!	!	!	!	!	!	!
32EE	.	32G	.	32c	.	.	.	.
32EE	.	32G	.	32c	.	.	.	.
32EEJJJ	.	32GJJJ	.	32cJJJ	.	.	.	.
32FFLLL	.	32FLLL	.	32cLLL	.	8aaa'J	.	IV
32FF	.	32F	.	32c	.	.	.	.
32FF	.	32F	.	32c	.	.	.	.
32FFJJJ	.	32FJJJ	.	32cJJJ	.	.	.	.
=89	=89	=89	=89	=89	=89	=89	=89	=89
!	!LO:DY:a	!	!	!	!	!	!	!
!	!LO:DY:a	!	!	!	!	!	!	!
32GGLLL	f p f p	32DLLL	.	32fLLL	p f	8bb'L	p f	V7
32GG	.	32D	.	32f	.	.	.	.
32GG	.	32D	.	32f	.	.	.	.
32GGJJJ	.	32DJJJ	.	32fJJJ	.	.	.	.
32AALLL	.	32CLLL	.	32eLLL	.	8ccc'J	.	vi
32AA	.	32C	.	32e	.	.	.	.
32AA	.	32C	.	32e	.	.	.	.
32AAJJJ	.	32CJJJ	.	32eJJJ	.	.	.	.
32BBLLL	.	32DLLL	.	32dLLL	.	[16gg'LL	.	V6
32BB	.	32D	.	32d	.	.	.	.
32C	.	32E	.	32c	.	16gg]	.	I
32CJJJ	.	32EJJJ	.	32cJJJ	.	.	.	.
32FFLLL	.	32DLLL	.	32cLLL	.	[16aa'JJ	.	ii65
32FF	.	32D	.	32c	.	.	.	.
32FF#	.	32d	.	32c	.	16aa]	.	V65/V
32FF#JJJ	.	32dJJJ	.	32cJJJ	.	.	.	.
16GG'LL	.	16e'LL	.	16c'LL	.	16g'LL	.	V(64)
16r	.	16r	.	16r	.	16r	.	.
16GG'JJ	.	16D'JJ	.	16f'JJ	.	16b'JJ	.	V7
16r;	.	16r;	.	16r;	.	16r;	.	.
(32qqCC/LLL	.	(32qqC/LLL	.	.	.	.	.	.
32qqGG/	.	32qqG/	.	(32qqG/LLL	.	(32qqG/LLL	.	I\\
32qqE/JJJ	.	32qqe/JJJ	.	32qqc/JJJ	.	32qqe/JJJ	.	.
8CC')	.	8C')	.	8e')	.	8cc')	.	.
8r	.	8r	.	8r	.	8r	.	.
==	==	==	==	==	==	==	==	==
*-	*-	*-	*-	*-	*-	*-	*-	*-
!!!system-decoration: [(s1,s2,s3,s4)]
!!!YEM: <font size="8.5"/>Copyright2002 by Robert L. Jenks
